;FLAVOR:Marlin
;TIME:42300
;Filament used: 46.4097m
;Layer height: 0.2
;MINX:24
;MINY:49
;MINZ:0.2
;MAXX:196
;MAXY:171
;MAXZ:28
;Generated with Cura_SteamEngine master
M140 S60
M105
M190 S60
M104 S200
M105
M109 S200
M82 ;absolute extrusion mode
M201 X500.00 Y500.00 Z100.00 E5000.00 ;Setup machine max acceleration
M203 X500.00 Y500.00 Z10.00 E50.00 ;Setup machine max feedrate
M204 P500.00 R1000.00 T500.00 ;Setup Print/Retract/Travel acceleration
M205 X8.00 Y8.00 Z0.40 E5.00 ;Setup Jerk
M220 S100 ;Reset Feedrate
M221 S100 ;Reset Flowrate

G28 ;Home

G92 E0 ;Reset Extruder
G1 Z2.0 F3000 ;Move Z Axis up
G1 X10.1 Y20 Z0.28 F5000.0 ;Move to start position
G1 X10.1 Y200.0 Z0.28 F1500.0 E15 ;Draw the first line
G1 X10.4 Y200.0 Z0.28 F5000.0 ;Move to side a little
G1 X10.4 Y20 Z0.28 F1500.0 E30 ;Draw the second line
G92 E0 ;Reset Extruder
G1 Z2.0 F3000 ;Move Z Axis up

G92 E0
G92 E0
G1 F1500 E-6.5
;LAYER_COUNT:140
;LAYER:0
M107
G0 F6000 X29.412 Y50.539 Z0.2
;TYPE:SKIRT
G1 F1500 E0
G1 F1200 X30.239 Y50.097 E0.03119
G1 X31.101 Y49.727 E0.06239
G1 X31.991 Y49.431 E0.09358
G1 X32.903 Y49.213 E0.12477
G1 X33.83 Y49.072 E0.15596
G1 X34.701 Y49.013 E0.18499
G1 X35.022 Y49.004 E0.19567
G1 X35.33 Y49 E0.20592
G1 X184.293 Y49 E5.16045
G1 X184.451 Y49.001 E5.1657
G1 X185.149 Y49.011 E5.18892
G1 X186.085 Y49.065 E5.22011
G1 X187.013 Y49.197 E5.25128
G1 X187.927 Y49.409 E5.28249
G1 X188.819 Y49.698 E5.31368
G1 X189.684 Y50.061 E5.34488
G1 X190.514 Y50.497 E5.37606
G1 X191.305 Y51.002 E5.40727
G1 X192.049 Y51.573 E5.43847
G1 X192.742 Y52.205 E5.46966
G1 X193.379 Y52.893 E5.50085
G1 X193.954 Y53.634 E5.53204
G1 X194.465 Y54.42 E5.56322
G1 X194.907 Y55.248 E5.59444
G1 X195.276 Y56.11 E5.62563
G1 X195.571 Y57 E5.65681
G1 X195.789 Y57.912 E5.688
G1 X195.929 Y58.84 E5.71921
G1 X195.987 Y59.701 E5.74792
G1 X195.996 Y60.021 E5.75856
G1 X196 Y60.33 E5.76884
G1 X196 Y159.264 E9.0594
G1 X195.999 Y159.4 E9.06392
G1 X195.99 Y160.127 E9.08811
G1 X195.939 Y161.064 E9.11932
G1 X195.807 Y161.992 E9.15049
G1 X195.598 Y162.906 E9.18168
G1 X195.311 Y163.799 E9.21287
G1 X194.949 Y164.665 E9.24409
G1 X194.515 Y165.496 E9.27527
G1 X194.011 Y166.287 E9.30647
G1 X193.442 Y167.032 E9.33765
G1 X192.811 Y167.727 E9.36887
G1 X192.124 Y168.365 E9.40005
G1 X191.385 Y168.942 E9.43124
G1 X190.599 Y169.454 E9.46244
G1 X189.773 Y169.897 E9.49361
G1 X188.911 Y170.269 E9.52484
G1 X188.022 Y170.565 E9.556
G1 X187.11 Y170.785 E9.58721
G1 X186.183 Y170.926 E9.61839
G1 X185.299 Y170.987 E9.64786
G1 X184.978 Y170.996 E9.65855
G1 X184.67 Y171 E9.66879
G1 X125.707 Y171 E11.62991
G1 X125.549 Y170.999 E11.63516
G1 X124.852 Y170.989 E11.65835
G1 X123.648 Y170.905 E11.69849
G1 X123.151 Y170.843 E11.71515
G1 X122.957 Y170.817 E11.72166
G1 X121.338 Y170.586 E11.77605
G1 X118.845 Y170.302 E11.85951
G1 X116.32 Y170.086 E11.94379
G1 X113.835 Y169.944 E12.02658
G1 X111.285 Y169.872 E12.11143
G1 X108.791 Y169.871 E12.19438
G1 X106.258 Y169.942 E12.27866
G1 X103.755 Y170.082 E12.36204
G1 X101.224 Y170.296 E12.44652
G1 X98.705 Y170.582 E12.53084
G1 X97.381 Y170.761 E12.57528
G1 X96.557 Y170.879 E12.60297
G1 X95.321 Y170.985 E12.64423
G1 X94.981 Y170.995 E12.65554
G1 X94.658 Y171 E12.66628
G1 X35.707 Y171 E14.627
G1 X35.549 Y170.999 E14.63226
G1 X34.851 Y170.989 E14.65547
G1 X33.915 Y170.935 E14.68666
G1 X32.987 Y170.803 E14.71783
G1 X32.073 Y170.591 E14.74904
G1 X31.181 Y170.302 E14.78023
G1 X30.316 Y169.939 E14.81143
G1 X29.486 Y169.503 E14.84261
G1 X28.695 Y168.998 E14.87382
G1 X27.951 Y168.427 E14.90502
G1 X27.258 Y167.795 E14.93621
G1 X26.621 Y167.107 E14.9674
G1 X26.046 Y166.366 E14.99859
G1 X25.535 Y165.58 E15.02977
G1 X25.093 Y164.752 E15.06099
G1 X24.724 Y163.89 E15.09218
G1 X24.429 Y163 E15.12336
G1 X24.211 Y162.088 E15.15455
G1 X24.071 Y161.16 E15.18577
G1 X24.013 Y160.288 E15.21483
G1 X24.004 Y159.956 E15.22588
G1 X24 Y159.658 E15.23579
G1 X24 Y60.674 E18.52801
G1 X24.001 Y60.525 E18.53297
G1 X24.01 Y59.86 E18.55509
G1 X24.063 Y58.924 E18.58627
G1 X24.195 Y57.995 E18.61748
G1 X24.406 Y57.081 E18.64868
G1 X24.694 Y56.189 E18.67986
G1 X25.057 Y55.324 E18.71106
G1 X25.492 Y54.493 E18.74225
G1 X25.996 Y53.703 E18.77342
G1 X26.566 Y52.958 E18.80462
G1 X27.198 Y52.264 E18.83584
G1 X27.886 Y51.627 E18.86702
G1 X28.626 Y51.051 E18.89821
G1 X29.412 Y50.539 E18.92941
G0 F6000 X29.791 Y50.782
G1 F1200 X30.611 Y50.364 E18.96003
G1 X31.465 Y50.019 E18.99066
G1 X32.345 Y49.749 E19.02128
G1 X33.245 Y49.557 E19.05188
G1 X34.159 Y49.443 E19.08252
G1 X34.712 Y49.413 E19.10094
G1 X35.033 Y49.404 E19.11162
G1 X35.33 Y49.4 E19.1215
G1 X184.293 Y49.4 E24.07603
G1 X184.445 Y49.401 E24.08108
G1 X185.143 Y49.411 E24.1043
G1 X186.062 Y49.464 E24.13492
G1 X186.973 Y49.597 E24.16554
G1 X187.869 Y49.808 E24.19616
G1 X188.743 Y50.096 E24.22676
G1 X189.59 Y50.459 E24.25741
G1 X190.401 Y50.894 E24.28802
G1 X191.171 Y51.398 E24.31863
G1 X191.895 Y51.967 E24.34926
G1 X192.567 Y52.597 E24.37989
G1 X193.182 Y53.282 E24.41051
G1 X193.735 Y54.018 E24.44113
G1 X194.222 Y54.799 E24.47174
G1 X194.639 Y55.62 E24.50237
G1 X194.984 Y56.474 E24.53301
G1 X195.253 Y57.354 E24.56361
G1 X195.445 Y58.255 E24.59425
G1 X195.558 Y59.168 E24.62485
G1 X195.587 Y59.712 E24.64297
G1 X195.596 Y60.032 E24.65362
G1 X195.6 Y60.33 E24.66353
G1 X195.6 Y159.264 E27.95409
G1 X195.599 Y159.395 E27.95844
G1 X195.59 Y160.122 E27.98263
G1 X195.539 Y161.041 E28.01324
G1 X195.408 Y161.953 E28.04388
G1 X195.198 Y162.849 E28.07449
G1 X194.912 Y163.724 E28.10511
G1 X194.551 Y164.571 E28.13573
G1 X194.117 Y165.383 E28.16636
G1 X193.615 Y166.155 E28.19699
G1 X193.047 Y166.88 E28.22762
G1 X192.419 Y167.553 E28.25823
G1 X191.735 Y168.169 E28.28885
G1 X191 Y168.723 E28.31946
G1 X190.22 Y169.212 E28.35008
G1 X189.4 Y169.631 E28.38071
G1 X188.547 Y169.977 E28.41133
G1 X187.667 Y170.248 E28.44195
G1 X186.767 Y170.441 E28.47257
G1 X185.853 Y170.556 E28.5032
G1 X185.288 Y170.587 E28.52203
G1 X184.967 Y170.596 E28.53271
G1 X184.67 Y170.6 E28.54258
G1 X125.707 Y170.6 E30.5037
G1 X125.555 Y170.599 E30.50876
G1 X124.858 Y170.589 E30.53194
G1 X123.698 Y170.508 E30.57062
G1 X123.201 Y170.446 E30.58728
G1 X123.013 Y170.421 E30.59358
G1 X121.399 Y170.19 E30.64781
G1 X118.857 Y169.901 E30.73291
G1 X116.378 Y169.689 E30.81566
G1 X113.833 Y169.544 E30.90044
G1 X111.296 Y169.472 E30.98486
G1 X108.78 Y169.471 E31.06854
G1 X106.225 Y169.542 E31.15355
G1 X103.733 Y169.682 E31.23657
G1 X101.216 Y169.895 E31.32058
G1 X98.65 Y170.186 E31.40648
G1 X97.287 Y170.37 E31.45222
G1 X96.501 Y170.483 E31.47863
G1 X95.31 Y170.585 E31.51839
G1 X94.97 Y170.595 E31.5297
G1 X94.658 Y170.6 E31.54008
G1 X35.707 Y170.6 E33.5008
G1 X35.555 Y170.599 E33.50585
G1 X34.857 Y170.589 E33.52907
G1 X33.938 Y170.536 E33.55969
G1 X33.027 Y170.403 E33.59031
G1 X32.131 Y170.192 E33.62093
G1 X31.257 Y169.904 E33.65153
G1 X30.41 Y169.541 E33.68218
G1 X29.599 Y169.106 E33.71279
G1 X28.829 Y168.602 E33.7434
G1 X28.105 Y168.033 E33.77403
G1 X27.433 Y167.403 E33.80467
G1 X26.818 Y166.718 E33.83528
G1 X26.265 Y165.982 E33.8659
G1 X25.778 Y165.201 E33.89652
G1 X25.361 Y164.38 E33.92714
G1 X25.016 Y163.526 E33.95778
G1 X24.747 Y162.646 E33.98838
G1 X24.555 Y161.745 E34.01902
G1 X24.442 Y160.832 E34.04962
G1 X24.413 Y160.277 E34.06811
G1 X24.404 Y159.945 E34.07915
G1 X24.4 Y159.658 E34.0887
G1 X24.4 Y60.674 E37.38092
G1 X24.401 Y60.531 E37.38568
G1 X24.41 Y59.866 E37.4078
G1 X24.462 Y58.946 E37.43844
G1 X24.594 Y58.035 E37.46906
G1 X24.805 Y57.139 E37.49968
G1 X25.092 Y56.264 E37.5303
G1 X25.455 Y55.418 E37.56092
G1 X25.889 Y54.606 E37.59155
G1 X26.392 Y53.835 E37.62217
G1 X26.961 Y53.111 E37.65279
G1 X27.589 Y52.439 E37.68338
G1 X28.274 Y51.823 E37.71402
G1 X29.01 Y51.27 E37.74464
G1 X29.791 Y50.782 E37.77527
G0 F6000 X30.169 Y51.031
G1 F1200 X30.982 Y50.638 E37.80531
G1 X31.827 Y50.318 E37.83536
G1 X32.696 Y50.075 E37.86537
G1 X33.584 Y49.909 E37.89542
G1 X34.723 Y49.813 E37.93344
G1 X35.044 Y49.804 E37.94412
G1 X35.33 Y49.8 E37.95363
G1 X184.293 Y49.8 E42.90816
G1 X184.439 Y49.801 E42.91302
G1 X185.137 Y49.811 E42.93623
G1 X186.039 Y49.864 E42.96629
G1 X186.932 Y49.996 E42.99631
G1 X187.81 Y50.207 E43.02634
G1 X188.666 Y50.495 E43.05638
G1 X189.493 Y50.857 E43.08641
G1 X190.285 Y51.292 E43.11646
G1 X191.036 Y51.794 E43.14651
G1 X191.739 Y52.361 E43.17655
G1 X192.389 Y52.988 E43.20658
G1 X192.981 Y53.67 E43.23662
G1 X193.511 Y54.401 E43.26665
G1 X193.973 Y55.177 E43.29669
G1 X194.366 Y55.99 E43.32672
G1 X194.684 Y56.835 E43.35675
G1 X194.927 Y57.705 E43.3868
G1 X195.092 Y58.593 E43.41684
G1 X195.187 Y59.723 E43.45455
G1 X195.196 Y60.043 E43.4652
G1 X195.2 Y60.33 E43.47475
G1 X195.2 Y159.264 E46.76531
G1 X195.199 Y159.39 E46.7695
G1 X195.19 Y160.117 E46.79368
G1 X195.139 Y161.019 E46.82373
G1 X195.008 Y161.913 E46.85378
G1 X194.799 Y162.791 E46.8838
G1 X194.513 Y163.648 E46.91385
G1 X194.152 Y164.476 E46.94389
G1 X193.72 Y165.268 E46.9739
G1 X193.219 Y166.02 E47.00395
G1 X192.653 Y166.724 E47.034
G1 X192.028 Y167.375 E47.06401
G1 X191.347 Y167.969 E47.09407
G1 X190.616 Y168.5 E47.12412
G1 X189.842 Y168.964 E47.15413
G1 X189.029 Y169.358 E47.18418
G1 X188.185 Y169.678 E47.2142
G1 X187.315 Y169.923 E47.24426
G1 X186.428 Y170.089 E47.27428
G1 X185.277 Y170.187 E47.3127
G1 X184.956 Y170.196 E47.32338
G1 X184.67 Y170.2 E47.33289
G1 X125.707 Y170.2 E49.29401
G1 X125.561 Y170.199 E49.29887
G1 X124.864 Y170.189 E49.32205
G1 X123.747 Y170.112 E49.35929
G1 X123.25 Y170.05 E49.37595
G1 X123.07 Y170.025 E49.38199
G1 X121.434 Y169.791 E49.43696
G1 X118.935 Y169.507 E49.52061
G1 X116.364 Y169.287 E49.60644
G1 X113.868 Y169.144 E49.68959
G1 X111.308 Y169.072 E49.77477
G1 X108.769 Y169.071 E49.85922
G1 X106.228 Y169.142 E49.94377
G1 X103.713 Y169.283 E50.02755
G1 X101.136 Y169.501 E50.11356
G1 X98.64 Y169.784 E50.19711
G1 X97.192 Y169.98 E50.24571
G1 X96.444 Y170.087 E50.27084
G1 X95.298 Y170.186 E50.3091
G1 X94.958 Y170.196 E50.32042
G1 X94.658 Y170.2 E50.33039
G1 X35.707 Y170.2 E52.29111
G1 X35.561 Y170.199 E52.29597
G1 X34.863 Y170.189 E52.31919
G1 X33.961 Y170.136 E52.34924
G1 X33.068 Y170.004 E52.37926
G1 X32.19 Y169.793 E52.4093
G1 X31.334 Y169.505 E52.43934
G1 X30.507 Y169.143 E52.46936
G1 X29.715 Y168.708 E52.49942
G1 X28.964 Y168.206 E52.52946
G1 X28.261 Y167.639 E52.5595
G1 X27.611 Y167.012 E52.58954
G1 X27.019 Y166.33 E52.61958
G1 X26.489 Y165.599 E52.64961
G1 X26.027 Y164.823 E52.67964
G1 X25.634 Y164.01 E52.70968
G1 X25.316 Y163.165 E52.73971
G1 X25.073 Y162.295 E52.76975
G1 X24.908 Y161.407 E52.79979
G1 X24.813 Y160.266 E52.83787
G1 X24.804 Y159.934 E52.84892
G1 X24.8 Y159.658 E52.8581
G1 X24.8 Y60.674 E56.15032
G1 X24.801 Y60.536 E56.15491
G1 X24.81 Y59.871 E56.17703
G1 X24.862 Y58.969 E56.20708
G1 X24.994 Y58.076 E56.23711
G1 X25.204 Y57.198 E56.26713
G1 X25.491 Y56.341 E56.29719
G1 X25.853 Y55.514 E56.32722
G1 X26.286 Y54.722 E56.35724
G1 X26.788 Y53.971 E56.38728
G1 X27.355 Y53.267 E56.41735
G1 X27.981 Y52.617 E56.44736
G1 X28.662 Y52.024 E56.4774
G1 X29.394 Y51.494 E56.50746
G1 X30.169 Y51.031 E56.53748
G1 F1500 E50.03748
;MESH:MT-table-hinges-mount.stl
G0 F6000 X36.21 Y59.335
G0 X36.21 Y61.21
G0 X36.182 Y158.818
G0 X93.818 Y158.818
G0 X94.181 Y139.623
G0 X99.175 Y130.978
G0 X105.229 Y128.314
G0 X108.386 Y127.643
G0 X111.614 Y127.643
G0 X114.771 Y128.314
G0 X117.722 Y129.628
G0 X120.341 Y131.535
G0 X122.5 Y133.935
G0 X124.111 Y136.731
G0 X125.107 Y139.801
G0 X125.405 Y142.66
G0 X126 Y159
;TYPE:WALL-INNER
G1 F1500 E56.53748
G1 F1200 X126 Y142.948 E57.07137
G1 X125.657 Y139.685 E57.1805
G1 X124.627 Y136.503 E57.29174
G1 X122.957 Y133.604 E57.40302
G1 X120.718 Y131.115 E57.51437
G1 X118.003 Y129.14 E57.62603
G1 X114.945 Y127.777 E57.73739
G1 X111.673 Y127.082 E57.84864
G1 X108.327 Y127.082 E57.95993
G1 X105.055 Y127.777 E58.07119
G1 X101.997 Y129.14 E58.18254
G1 X99.29 Y131.106 E58.29382
G1 X97.06 Y133.582 E58.40464
G1 X95.386 Y136.478 E58.5159
G1 X94.363 Y139.619 E58.62577
G1 X94.349 Y139.659 E58.62718
G1 X94.002 Y142.935 E58.73675
G1 X94 Y159 E59.27108
G1 X36 Y159 E61.20016
G1 X36 Y61 E64.45966
G1 X184 Y61 E69.38216
G1 X184 Y159 E72.64165
G1 X126 Y159 E74.57074
G0 F6000 X125.6 Y159.4
G1 F1200 X125.6 Y142.969 E75.11723
G1 X125.264 Y139.768 E75.22429
G1 X124.259 Y136.666 E75.33274
G1 X122.631 Y133.84 E75.44121
G1 X120.449 Y131.414 E75.54974
G1 X117.802 Y129.488 E75.65862
G1 X114.821 Y128.16 E75.76716
G1 X111.631 Y127.482 E75.87563
G1 X108.369 Y127.482 E75.98412
G1 X105.179 Y128.16 E76.09259
G1 X102.198 Y129.488 E76.20113
G1 X99.559 Y131.405 E76.30962
G1 X97.385 Y133.819 E76.41767
G1 X95.753 Y136.642 E76.52613
G1 X94.742 Y139.743 E76.63461
G1 X94.402 Y142.956 E76.74207
G1 X94.4 Y159.4 E77.289
G1 X35.6 Y159.4 E79.2447
G1 X35.6 Y60.6 E82.5308
G1 X184.4 Y60.6 E87.4799
G1 X184.4 Y159.4 E90.76601
G1 X125.6 Y159.4 E92.7217
G0 F6000 X125.2 Y159.8
;TYPE:WALL-OUTER
G1 F1200 X125.2 Y142.99 E93.2808
G1 X124.871 Y139.851 E93.38578
G1 X123.891 Y136.829 E93.49145
G1 X122.305 Y134.076 E93.59712
G1 X120.18 Y131.713 E93.70282
G1 X117.601 Y129.836 E93.80891
G1 X114.697 Y128.543 E93.91464
G1 X111.589 Y127.882 E94.02032
G1 X108.411 Y127.882 E94.12602
G1 X105.303 Y128.543 E94.23171
G1 X102.399 Y129.836 E94.33744
G1 X99.828 Y131.704 E94.44314
G1 X97.71 Y134.056 E94.54841
G1 X96.12 Y136.806 E94.65406
G1 X95.135 Y139.827 E94.75974
G1 X94.802 Y142.977 E94.8651
G1 X94.8 Y159.8 E95.42463
G1 X35.2 Y159.8 E97.40694
G1 X35.2 Y60.2 E100.71965
G1 X184.8 Y60.2 E105.69536
G1 X184.8 Y159.8 E109.00807
G1 X125.2 Y159.8 E110.99038
G0 F6000 X125.47 Y159.53
G0 X126.11 Y158.61
G0 X126.39 Y158.61
;TYPE:SKIN
G1 F1200 X126.39 Y142.928 E111.51196
G1 X126.041 Y139.603 E111.62316
G1 X124.986 Y136.343 E111.73712
G1 X123.275 Y133.374 E111.8511
G1 X120.981 Y130.824 E111.96518
G1 X118.2 Y128.801 E112.07956
G1 X115.066 Y127.404 E112.19368
G1 X111.714 Y126.692 E112.30766
G1 X108.286 Y126.692 E112.42168
G1 X104.934 Y127.404 E112.53565
G1 X101.8 Y128.801 E112.64978
G1 X99.027 Y130.815 E112.76376
G1 X96.742 Y133.352 E112.87733
G1 X95.028 Y136.318 E112.99126
G1 X93.965 Y139.577 E113.10528
G1 X93.612 Y142.914 E113.21689
G1 X93.61 Y158.61 E113.73894
G1 X36.39 Y158.61 E115.64208
G1 X36.39 Y61.39 E118.87563
G1 X183.61 Y61.39 E123.77219
G1 X183.61 Y158.61 E127.00574
G1 X126.39 Y158.61 E128.90888
G1 F1500 E122.40888
G0 F6000 X126.11 Y158.61
G0 X125.439 Y142.978
G0 X125.107 Y139.801
G0 X124.111 Y136.731
G0 X122.5 Y133.935
G0 X120.341 Y131.535
G0 X117.722 Y129.628
G0 X114.771 Y128.314
G0 X111.614 Y127.643
G0 X108.386 Y127.643
G0 X105.229 Y128.314
G0 X102.278 Y129.628
G0 X99.667 Y131.526
G0 X97.515 Y133.915
G0 X95.9 Y136.708
G0 X94.899 Y139.777
G0 X94.563 Y142.964
G0 X93.818 Y158.818
G0 X36.826 Y158.89
G0 X36.826 Y158.449
G1 F1500 E128.90888
G1 F1200 X36.549 Y158.172 E128.92191
G0 F6000 X36.549 Y157.606
G1 F1200 X37.392 Y158.449 E128.96157
G0 F6000 X37.958 Y158.449
G1 F1200 X36.549 Y157.04 E129.02784
G0 F6000 X36.549 Y156.474
G1 F1200 X38.523 Y158.449 E129.12072
G0 F6000 X39.089 Y158.449
G1 F1200 X36.549 Y155.909 E129.24019
G0 F6000 X36.549 Y155.343
G1 F1200 X39.655 Y158.449 E129.38629
G0 F6000 X40.22 Y158.449
G1 F1200 X36.549 Y154.777 E129.55898
G0 F6000 X36.549 Y154.212
G1 F1200 X40.786 Y158.449 E129.75828
G0 F6000 X41.352 Y158.449
G1 F1200 X36.549 Y153.646 E129.9842
G0 F6000 X36.549 Y153.08
G1 F1200 X41.917 Y158.449 E130.23671
G0 F6000 X42.483 Y158.449
G1 F1200 X36.549 Y152.515 E130.51583
G0 F6000 X36.549 Y151.949
G1 F1200 X43.049 Y158.449 E130.82157
G0 F6000 X43.615 Y158.449
G1 F1200 X36.549 Y151.383 E131.15393
G0 F6000 X36.549 Y150.818
G1 F1200 X44.18 Y158.449 E131.51287
G0 F6000 X44.746 Y158.449
G1 F1200 X36.549 Y150.252 E131.89843
G0 F6000 X36.549 Y149.686
G1 F1200 X45.312 Y158.449 E132.31062
G0 F6000 X45.877 Y158.449
G1 F1200 X36.549 Y149.121 E132.74938
G0 F6000 X36.549 Y148.555
G1 F1200 X46.443 Y158.449 E133.21476
G0 F6000 X47.009 Y158.449
G1 F1200 X36.549 Y147.989 E133.70677
G0 F6000 X36.549 Y147.423
G1 F1200 X47.574 Y158.449 E134.22538
G0 F6000 X48.14 Y158.449
G1 F1200 X36.549 Y146.858 E134.77058
G0 F6000 X36.549 Y146.292
G1 F1200 X48.706 Y158.449 E135.34241
G0 F6000 X49.271 Y158.449
G1 F1200 X36.549 Y145.726 E135.94084
G0 F6000 X36.549 Y145.161
