;FLAVOR:Marlin
;TIME:24389
;Filament used: 22.3284m
;Layer height: 0.2
;MINX:19
;MINY:54
;MINZ:0.2
;MAXX:201
;MAXY:166
;MAXZ:31
;Generated with Cura_SteamEngine master
M140 S60
M105
M190 S60
M104 S200
M105
M109 S200
M82 ;absolute extrusion mode
M201 X500.00 Y500.00 Z100.00 E5000.00 ;Setup machine max acceleration
M203 X500.00 Y500.00 Z10.00 E50.00 ;Setup machine max feedrate
M204 P500.00 R1000.00 T500.00 ;Setup Print/Retract/Travel acceleration
M205 X8.00 Y8.00 Z0.40 E5.00 ;Setup Jerk
M220 S100 ;Reset Feedrate
M221 S100 ;Reset Flowrate

G28 ;Home

G92 E0 ;Reset Extruder
G1 Z2.0 F3000 ;Move Z Axis up
G1 X10.1 Y20 Z0.28 F5000.0 ;Move to start position
G1 X10.1 Y200.0 Z0.28 F1500.0 E15 ;Draw the first line
G1 X10.4 Y200.0 Z0.28 F5000.0 ;Move to side a little
G1 X10.4 Y20 Z0.28 F1500.0 E30 ;Draw the second line
G92 E0 ;Reset Extruder
G1 Z2.0 F3000 ;Move Z Axis up

G92 E0
G92 E0
G1 F1500 E-6.5
;LAYER_COUNT:155
;LAYER:0
M107
G0 F6000 X52.21 Y57.252 Z0.2
;TYPE:SKIRT
G1 F1500 E0
G1 F1200 X52.899 Y56.616 E0.03119
G1 X53.64 Y56.041 E0.06238
G1 X54.427 Y55.531 E0.09357
G1 X55.255 Y55.09 E0.12478
G1 X56.117 Y54.721 E0.15596
G1 X57.008 Y54.427 E0.18717
G1 X57.92 Y54.209 E0.21836
G1 X58.847 Y54.071 E0.24953
G1 X59.701 Y54.013 E0.278
G1 X60.021 Y54.004 E0.28865
G1 X60.33 Y54 E0.29892
G1 X159.293 Y54 E3.59045
G1 X159.451 Y54.001 E3.5957
G1 X160.149 Y54.011 E3.61892
G1 X161.085 Y54.065 E3.6501
G1 X162.013 Y54.197 E3.68128
G1 X162.927 Y54.409 E3.71249
G1 X163.819 Y54.698 E3.74367
G1 X164.684 Y55.061 E3.77487
G1 X165.514 Y55.497 E3.80606
G1 X166.305 Y56.002 E3.83727
G1 X167.049 Y56.573 E3.86846
G1 X167.742 Y57.205 E3.89966
G1 X168.379 Y57.893 E3.93084
G1 X168.954 Y58.634 E3.96204
G1 X169.465 Y59.42 E3.99322
G1 X169.907 Y60.248 E4.02444
G1 X170.276 Y61.11 E4.05562
G1 X170.571 Y62 E4.08681
G1 X170.789 Y62.912 E4.118
G1 X170.929 Y63.84 E4.14921
G1 X170.987 Y64.701 E4.17791
G1 X170.996 Y65.021 E4.18856
G1 X171 Y65.33 E4.19884
G1 X171 Y73.514 E4.47104
G1 X171.037 Y76.122 E4.55779
G1 X171.144 Y78.643 E4.64172
G1 X171.321 Y81.138 E4.72491
G1 X171.569 Y83.638 E4.80847
G1 X171.888 Y86.131 E4.89206
G1 X172.279 Y88.624 E4.97599
G1 X172.742 Y91.114 E5.06023
G1 X173.272 Y93.577 E5.14402
G1 X173.86 Y95.973 E5.22608
G1 X174.539 Y98.443 E5.31128
G1 X175.275 Y100.846 E5.39487
G1 X176.082 Y103.238 E5.47883
G1 X176.945 Y105.578 E5.56179
G1 X177.891 Y107.934 E5.64623
G1 X178.891 Y110.232 E5.72958
G1 X179.967 Y112.529 E5.81395
G1 X181.086 Y114.753 E5.89675
G1 X182.297 Y116.992 E5.98142
G1 X183.546 Y119.159 E6.06461
G1 X184.861 Y121.296 E6.14806
G1 X186.233 Y123.392 E6.23138
G1 X187.688 Y125.48 E6.31603
G1 X189.181 Y127.5 E6.39957
G1 X190.731 Y129.48 E6.48321
G1 X192.347 Y131.425 E6.56731
G1 X193.998 Y133.302 E6.65046
G1 X195.71 Y135.143 E6.73407
G1 X197.808 Y137.265 E6.83332
G1 X198.438 Y137.959 E6.8645
G1 X199.007 Y138.705 E6.8957
G1 X199.51 Y139.496 E6.92688
G1 X199.945 Y140.327 E6.95808
G1 X200.306 Y141.192 E6.98925
G1 X200.593 Y142.085 E7.02045
G1 X200.803 Y143 E7.05167
G1 X200.934 Y143.928 E7.08285
G1 X200.976 Y144.534 E7.10305
G1 X200.99 Y144.865 E7.11407
G1 X201 Y145.33 E7.12954
G1 X201 Y154.264 E7.42668
G1 X200.999 Y154.4 E7.43121
G1 X200.99 Y155.127 E7.45539
G1 X200.939 Y156.064 E7.4866
G1 X200.807 Y156.992 E7.51778
G1 X200.598 Y157.906 E7.54896
G1 X200.311 Y158.799 E7.58016
G1 X199.949 Y159.665 E7.61138
G1 X199.515 Y160.496 E7.64256
G1 X199.011 Y161.287 E7.67375
G1 X198.442 Y162.032 E7.70493
G1 X197.811 Y162.727 E7.73615
G1 X197.124 Y163.365 E7.76734
G1 X196.385 Y163.942 E7.79852
G1 X195.599 Y164.454 E7.82972
G1 X194.773 Y164.897 E7.8609
G1 X193.911 Y165.269 E7.89212
G1 X193.022 Y165.565 E7.92329
G1 X192.11 Y165.785 E7.95449
G1 X191.183 Y165.926 E7.98568
G1 X190.299 Y165.987 E8.01515
G1 X189.978 Y165.996 E8.02583
G1 X189.67 Y166 E8.03607
G1 X125.707 Y166 E10.16349
G1 X125.549 Y165.999 E10.16875
G1 X124.852 Y165.989 E10.19193
G1 X123.64 Y165.904 E10.23234
G1 X123.154 Y165.843 E10.24863
G1 X122.974 Y165.819 E10.25467
G1 X121.318 Y165.583 E10.31031
G1 X118.817 Y165.299 E10.39403
G1 X116.31 Y165.085 E10.47771
G1 X113.794 Y164.943 E10.56153
G1 X111.299 Y164.871 E10.64455
G1 X108.775 Y164.871 E10.7285
G1 X106.225 Y164.942 E10.81334
G1 X103.761 Y165.082 E10.89543
G1 X101.224 Y165.297 E10.98011
G1 X98.669 Y165.587 E11.06564
G1 X97.352 Y165.766 E11.10984
G1 X96.573 Y165.877 E11.13601
G1 X95.397 Y165.981 E11.17528
G1 X95.051 Y165.993 E11.1868
G1 X94.67 Y166 E11.19947
G1 X30.707 Y166 E13.32689
G1 X30.565 Y165.999 E13.33161
G1 X29.867 Y165.99 E13.35483
G1 X28.931 Y165.938 E13.38601
G1 X28.002 Y165.806 E13.41722
G1 X27.088 Y165.596 E13.44841
G1 X26.195 Y165.309 E13.47961
G1 X25.33 Y164.946 E13.51081
G1 X24.499 Y164.512 E13.54199
G1 X23.708 Y164.008 E13.57318
G1 X22.963 Y163.438 E13.60438
G1 X22.269 Y162.807 E13.63558
G1 X21.632 Y162.12 E13.66674
G1 X21.055 Y161.38 E13.69795
G1 X20.543 Y160.594 E13.72915
G1 X20.1 Y159.767 E13.76035
G1 X19.729 Y158.906 E13.79154
G1 X19.433 Y158.016 E13.82273
G1 X19.214 Y157.104 E13.85393
G1 X19.073 Y156.177 E13.88512
G1 X19.013 Y155.288 E13.91475
G1 X19.004 Y154.955 E13.92583
G1 X19 Y154.658 E13.93571
G1 X19 Y145.707 E14.23342
G1 X19.001 Y145.549 E14.23868
G1 X19.011 Y144.851 E14.26189
G1 X19.065 Y143.915 E14.29308
G1 X19.197 Y142.987 E14.32425
G1 X19.409 Y142.073 E14.35546
G1 X19.698 Y141.181 E14.38665
G1 X20.061 Y140.316 E14.41785
G1 X20.497 Y139.486 E14.44903
G1 X21.002 Y138.695 E14.48024
G1 X21.573 Y137.951 E14.51144
G1 X22.142 Y137.321 E14.53967
G1 X22.868 Y136.578 E14.57422
G1 X23.005 Y136.441 E14.58067
G1 X23.388 Y136.063 E14.59856
G1 X25.147 Y134.225 E14.68318
G1 X26.828 Y132.369 E14.76647
G1 X28.462 Y130.457 E14.85012
G1 X30.044 Y128.497 E14.9339
G1 X31.571 Y126.49 E15.01777
G1 X33.05 Y124.429 E15.10215
G1 X34.461 Y122.34 E15.18599
G1 X35.783 Y120.258 E15.26802
G1 X37.08 Y118.079 E15.35236
G1 X38.314 Y115.871 E15.43649
G1 X39.479 Y113.639 E15.52023
G1 X40.584 Y111.367 E15.60426
G1 X41.62 Y109.071 E15.68804
G1 X42.581 Y106.777 E15.77076
G1 X43.501 Y104.392 E15.85579
G1 X44.328 Y102.047 E15.93849
G1 X45.098 Y99.65 E16.02223
G1 X45.803 Y97.227 E16.10616
G1 X46.438 Y94.788 E16.18998
G1 X46.999 Y92.352 E16.27312
G1 X47.505 Y89.838 E16.35842
G1 X47.922 Y87.395 E16.44085
G1 X48.279 Y84.889 E16.52504
G1 X48.564 Y82.382 E16.60896
G1 X48.775 Y79.895 E16.69197
G1 X48.918 Y77.395 E16.77526
G1 X48.991 Y74.817 E16.86104
G1 X49 Y73.514 E16.90438
G1 X49 Y65.674 E17.16514
G1 X49.001 Y65.509 E17.17063
G1 X49.011 Y64.844 E17.19275
G1 X49.065 Y63.907 E17.22396
G1 X49.199 Y62.979 E17.25515
G1 X49.411 Y62.065 E17.28636
G1 X49.7 Y61.173 E17.31754
G1 X50.065 Y60.309 E17.34874
G1 X50.501 Y59.479 E17.37992
G1 X51.007 Y58.689 E17.41112
G1 X51.578 Y57.945 E17.44232
G1 X52.21 Y57.252 E17.47351
G0 F6000 X52.602 Y57.427
G1 F1200 X53.288 Y56.813 E17.50413
G1 X54.024 Y56.261 E17.53473
G1 X54.806 Y55.774 E17.56537
G1 X55.627 Y55.358 E17.59598
G1 X56.481 Y55.014 E17.62661
G1 X57.361 Y54.745 E17.65721
G1 X58.262 Y54.554 E17.68785
G1 X59.176 Y54.442 E17.71847
G1 X59.712 Y54.413 E17.73633
G1 X60.032 Y54.404 E17.74697
G1 X60.33 Y54.4 E17.75689
G1 X159.293 Y54.4 E21.04841
G1 X159.445 Y54.401 E21.05346
G1 X160.143 Y54.411 E21.07668
G1 X161.062 Y54.464 E21.1073
G1 X161.973 Y54.597 E21.13792
G1 X162.869 Y54.808 E21.16854
G1 X163.743 Y55.096 E21.19914
G1 X164.59 Y55.459 E21.22979
G1 X165.401 Y55.894 E21.2604
G1 X166.171 Y56.398 E21.29101
G1 X166.895 Y56.967 E21.32164
G1 X167.567 Y57.597 E21.35228
G1 X168.182 Y58.282 E21.38289
G1 X168.735 Y59.018 E21.41351
G1 X169.222 Y59.799 E21.44413
G1 X169.639 Y60.62 E21.47475
G1 X169.984 Y61.474 E21.50539
G1 X170.253 Y62.354 E21.53599
G1 X170.445 Y63.255 E21.56663
G1 X170.558 Y64.168 E21.59723
G1 X170.587 Y64.712 E21.61535
G1 X170.596 Y65.032 E21.626
G1 X170.6 Y65.33 E21.63591
G1 X170.6 Y73.517 E21.90821
G1 X170.637 Y76.145 E21.99563
G1 X170.744 Y78.653 E22.07912
G1 X170.922 Y81.173 E22.16314
G1 X171.171 Y83.688 E22.2472
G1 X171.49 Y86.177 E22.33066
G1 X171.891 Y88.729 E22.41658
G1 X172.343 Y91.16 E22.49883
G1 X172.881 Y93.659 E22.58385
G1 X173.478 Y96.095 E22.66727
G1 X174.156 Y98.561 E22.75233
G1 X174.889 Y100.954 E22.83557
G1 X175.703 Y103.368 E22.9203
G1 X176.57 Y105.718 E23.00361
G1 X177.529 Y108.106 E23.0892
G1 X178.52 Y110.383 E23.1718
G1 X179.606 Y112.7 E23.25691
G1 X180.742 Y114.958 E23.34098
G1 X181.932 Y117.16 E23.42423
G1 X183.193 Y119.347 E23.50819
G1 X184.545 Y121.544 E23.59399
G1 X185.913 Y123.634 E23.67707
G1 X187.353 Y125.701 E23.76086
G1 X188.859 Y127.739 E23.84514
G1 X190.41 Y129.719 E23.9288
G1 X192.038 Y131.678 E24.01352
G1 X193.705 Y133.575 E24.09751
G1 X195.431 Y135.43 E24.18179
G1 X197.523 Y137.546 E24.28075
G1 X198.142 Y138.228 E24.31139
G1 X198.698 Y138.961 E24.34199
G1 X199.189 Y139.74 E24.37261
G1 X199.611 Y140.558 E24.40323
G1 X199.96 Y141.41 E24.43385
G1 X200.234 Y142.289 E24.46447
G1 X200.43 Y143.189 E24.49511
G1 X200.577 Y144.551 E24.54067
G1 X200.591 Y144.882 E24.55169
G1 X200.6 Y145.33 E24.5666
G1 X200.6 Y154.264 E24.86374
G1 X200.599 Y154.395 E24.8681
G1 X200.59 Y155.122 E24.89228
G1 X200.539 Y156.041 E24.92289
G1 X200.408 Y156.953 E24.95354
G1 X200.198 Y157.849 E24.98415
G1 X199.912 Y158.724 E25.01477
G1 X199.551 Y159.571 E25.04539
G1 X199.117 Y160.383 E25.07601
G1 X198.615 Y161.155 E25.10664
G1 X198.047 Y161.88 E25.13727
G1 X197.419 Y162.553 E25.16789
G1 X196.735 Y163.169 E25.1985
G1 X196 Y163.723 E25.22912
G1 X195.22 Y164.212 E25.25974
G1 X194.4 Y164.631 E25.29036
G1 X193.547 Y164.977 E25.32098
G1 X192.667 Y165.248 E25.3516
G1 X191.767 Y165.441 E25.38222
G1 X190.853 Y165.556 E25.41286
G1 X190.288 Y165.587 E25.43168
G1 X189.967 Y165.596 E25.44236
G1 X189.67 Y165.6 E25.45224
G1 X125.707 Y165.6 E27.57966
G1 X125.555 Y165.599 E27.58471
G1 X124.858 Y165.589 E27.6079
G1 X123.69 Y165.507 E27.64684
G1 X123.204 Y165.446 E27.66313
G1 X123.031 Y165.423 E27.66894
G1 X121.384 Y165.189 E27.72427
G1 X118.864 Y164.902 E27.80862
G1 X116.332 Y164.686 E27.89314
G1 X113.827 Y164.544 E27.97659
G1 X111.275 Y164.471 E28.06151
G1 X108.764 Y164.471 E28.14503
G1 X106.227 Y164.542 E28.22944
G1 X103.703 Y164.685 E28.31352
G1 X101.181 Y164.899 E28.39771
G1 X98.659 Y165.185 E28.48213
G1 X97.258 Y165.375 E28.52915
G1 X96.517 Y165.481 E28.55405
G1 X95.383 Y165.582 E28.59191
G1 X95.037 Y165.594 E28.60343
G1 X94.67 Y165.6 E28.61564
G1 X30.707 Y165.6 E30.74305
G1 X30.57 Y165.599 E30.74761
G1 X29.872 Y165.59 E30.77083
G1 X28.953 Y165.538 E30.80144
G1 X28.042 Y165.407 E30.83205
G1 X27.146 Y165.197 E30.86266
G1 X26.271 Y164.91 E30.89329
G1 X25.424 Y164.548 E30.92393
G1 X24.612 Y164.114 E30.95455
G1 X23.841 Y163.612 E30.98515
G1 X23.116 Y163.044 E31.01578
G1 X22.443 Y162.415 E31.04642
G1 X21.828 Y161.731 E31.07702
G1 X21.274 Y160.996 E31.10763
G1 X20.786 Y160.215 E31.13826
G1 X20.367 Y159.395 E31.16889
G1 X20.021 Y158.542 E31.1995
G1 X19.751 Y157.662 E31.23012
G1 X19.558 Y156.761 E31.26076
G1 X19.444 Y155.848 E31.29137
G1 X19.413 Y155.277 E31.31039
G1 X19.404 Y154.944 E31.32147
G1 X19.4 Y154.658 E31.33098
G1 X19.4 Y145.707 E31.62869
G1 X19.401 Y145.555 E31.63375
G1 X19.411 Y144.857 E31.65696
G1 X19.464 Y143.938 E31.68758
G1 X19.597 Y143.027 E31.7182
G1 X19.808 Y142.131 E31.74882
G1 X20.096 Y141.257 E31.77943
G1 X20.459 Y140.41 E31.81008
G1 X20.894 Y139.599 E31.84068
G1 X21.398 Y138.829 E31.87129
G1 X21.967 Y138.105 E31.90192
G1 X22.428 Y137.601 E31.92464
G1 X23.154 Y136.858 E31.95919
G1 X23.286 Y136.725 E31.96542
G1 X23.675 Y136.341 E31.9836
G1 X25.448 Y134.488 E32.0689
G1 X27.129 Y132.631 E32.15221
G1 X28.775 Y130.706 E32.23645
G1 X30.358 Y128.746 E32.32025
G1 X31.886 Y126.737 E32.4042
G1 X33.374 Y124.664 E32.48907
G1 X34.772 Y122.594 E32.57215
G1 X36.146 Y120.43 E32.65741
G1 X37.44 Y118.258 E32.7415
G1 X38.653 Y116.087 E32.82421
G1 X39.836 Y113.821 E32.90923
G1 X40.931 Y111.57 E32.99249
G1 X41.982 Y109.241 E33.07747
G1 X42.965 Y106.892 E33.16217
G1 X43.876 Y104.533 E33.24627
G1 X44.71 Y102.165 E33.32978
G1 X45.48 Y99.769 E33.41348
G1 X46.188 Y97.334 E33.49782
G1 X46.829 Y94.874 E33.58238
G1 X47.395 Y92.415 E33.6663
G1 X47.892 Y89.946 E33.75007
G1 X48.319 Y87.448 E33.83436
G1 X48.677 Y84.938 E33.91868
G1 X48.957 Y82.463 E34.00153
G1 X49.175 Y79.912 E34.08668
G1 X49.318 Y77.395 E34.17054
G1 X49.391 Y74.83 E34.25588
G1 X49.4 Y73.517 E34.29955
G1 X49.4 Y65.674 E34.56041
G1 X49.401 Y65.515 E34.5657
G1 X49.411 Y64.85 E34.58782
G1 X49.465 Y63.931 E34.61844
G1 X49.598 Y63.02 E34.64906
G1 X49.81 Y62.124 E34.67969
G1 X50.099 Y61.249 E34.71033
G1 X50.463 Y60.404 E34.74094
G1 X50.898 Y59.593 E34.77155
G1 X51.403 Y58.822 E34.8022
G1 X51.972 Y58.099 E34.8328
G1 X52.602 Y57.427 E34.86344
G0 F6000 X52.993 Y57.606
G1 F1200 X53.675 Y57.014 E34.89348
G1 X54.407 Y56.485 E34.92351
G1 X55.183 Y56.023 E34.95355
G1 X55.997 Y55.632 E34.98359
G1 X56.842 Y55.313 E35.01363
G1 X57.712 Y55.071 E35.04366
G1 X58.6 Y54.907 E35.0737
G1 X59.723 Y54.813 E35.11118
G1 X60.043 Y54.804 E35.12183
G1 X60.33 Y54.8 E35.13137
G1 X159.293 Y54.8 E38.4229
G1 X159.439 Y54.801 E38.42775
G1 X160.137 Y54.811 E38.45097
G1 X161.039 Y54.864 E38.48102
G1 X161.932 Y54.996 E38.51105
G1 X162.81 Y55.207 E38.54108
G1 X163.666 Y55.495 E38.57112
G1 X164.493 Y55.857 E38.60114
G1 X165.285 Y56.292 E38.6312
G1 X166.036 Y56.794 E38.66124
G1 X166.739 Y57.361 E38.69128
G1 X167.389 Y57.988 E38.72132
G1 X167.981 Y58.67 E38.75136
G1 X168.511 Y59.401 E38.78139
G1 X168.973 Y60.177 E38.81143
G1 X169.366 Y60.99 E38.84146
G1 X169.684 Y61.835 E38.87149
G1 X169.927 Y62.705 E38.90153
G1 X170.092 Y63.593 E38.93157
G1 X170.187 Y64.723 E38.96929
G1 X170.196 Y65.043 E38.97994
G1 X170.2 Y65.33 E38.98948
G1 X170.2 Y73.519 E39.26185
G1 X170.237 Y76.132 E39.34877
G1 X170.346 Y78.697 E39.43416
G1 X170.524 Y81.204 E39.51775
G1 X170.775 Y83.745 E39.60268
G1 X171.096 Y86.253 E39.68677
G1 X171.49 Y88.758 E39.77111
G1 X171.952 Y91.245 E39.85525
G1 X172.495 Y93.766 E39.94102
G1 X173.09 Y96.191 E40.02407
G1 X173.767 Y98.657 E40.10912
G1 X174.51 Y101.084 E40.19354
G1 X175.321 Y103.486 E40.27786
G1 X176.211 Y105.899 E40.36341
G1 X177.134 Y108.199 E40.44583
G1 X178.169 Y110.577 E40.53209
G1 X179.237 Y112.856 E40.6158
G1 X180.398 Y115.163 E40.7017
G1 X181.592 Y117.372 E40.78522
G1 X182.849 Y119.551 E40.86889
G1 X184.187 Y121.726 E40.95382
G1 X185.583 Y123.859 E41.03861
G1 X187.036 Y125.944 E41.12313
G1 X188.538 Y127.978 E41.20723
G1 X190.117 Y129.993 E41.29238
G1 X191.73 Y131.935 E41.37634
G1 X193.411 Y133.846 E41.46099
G1 X195.121 Y135.685 E41.54452
G1 X197.239 Y137.827 E41.64471
G1 X197.845 Y138.497 E41.67475
G1 X198.389 Y139.217 E41.70477
G1 X198.868 Y139.983 E41.73482
G1 X199.276 Y140.789 E41.76486
G1 X199.612 Y141.627 E41.79489
G1 X199.873 Y142.492 E41.82494
G1 X200.056 Y143.376 E41.85497
G1 X200.177 Y144.568 E41.89482
G1 X200.191 Y144.899 E41.90584
G1 X200.2 Y145.33 E41.92018
G1 X200.2 Y154.264 E42.21732
G1 X200.199 Y154.39 E42.22151
G1 X200.19 Y155.117 E42.24569
G1 X200.139 Y156.019 E42.27574
G1 X200.008 Y156.913 E42.3058
G1 X199.799 Y157.791 E42.33581
G1 X199.513 Y158.648 E42.36586
G1 X199.152 Y159.476 E42.39591
G1 X198.72 Y160.268 E42.42591
G1 X198.219 Y161.02 E42.45597
G1 X197.653 Y161.724 E42.48601
G1 X197.028 Y162.375 E42.51603
G1 X196.347 Y162.969 E42.54608
G1 X195.616 Y163.5 E42.57613
G1 X194.842 Y163.964 E42.60615
G1 X194.029 Y164.358 E42.6362
G1 X193.185 Y164.678 E42.66622
G1 X192.315 Y164.923 E42.69628
G1 X191.428 Y165.089 E42.72629
G1 X190.277 Y165.187 E42.76471
G1 X189.956 Y165.196 E42.77539
G1 X189.67 Y165.2 E42.78491
G1 X125.707 Y165.2 E44.91233
G1 X125.561 Y165.199 E44.91718
G1 X124.864 Y165.189 E44.94037
G1 X123.74 Y165.111 E44.97784
G1 X123.254 Y165.05 E44.99413
G1 X123.087 Y165.027 E44.99974
G1 X121.414 Y164.789 E45.05594
G1 X118.907 Y164.503 E45.13987
G1 X116.388 Y164.289 E45.22395
G1 X113.826 Y164.144 E45.3093
G1 X111.287 Y164.071 E45.39378
G1 X108.753 Y164.071 E45.47806
G1 X106.227 Y164.142 E45.56211
G1 X103.685 Y164.286 E45.64679
G1 X101.135 Y164.502 E45.73191
G1 X98.565 Y164.794 E45.81794
G1 X97.264 Y164.97 E45.86161
G1 X96.46 Y165.085 E45.88862
G1 X95.37 Y165.182 E45.92502
G1 X95.024 Y165.194 E45.93653
G1 X94.67 Y165.2 E45.94831
G1 X30.707 Y165.2 E48.07573
