;FLAVOR:Marlin
;TIME:24988
;Filament used: 23.4495m
;Layer height: 0.2
;MINX:19
;MINY:54
;MINZ:0.2
;MAXX:201
;MAXY:166
;MAXZ:31
;Generated with Cura_SteamEngine master
M140 S60
M105
M190 S60
M104 S200
M105
M109 S200
M82 ;absolute extrusion mode
M201 X500.00 Y500.00 Z100.00 E5000.00 ;Setup machine max acceleration
M203 X500.00 Y500.00 Z10.00 E50.00 ;Setup machine max feedrate
M204 P500.00 R1000.00 T500.00 ;Setup Print/Retract/Travel acceleration
M205 X8.00 Y8.00 Z0.40 E5.00 ;Setup Jerk
M220 S100 ;Reset Feedrate
M221 S100 ;Reset Flowrate

G28 ;Home

G92 E0 ;Reset Extruder
G1 Z2.0 F3000 ;Move Z Axis up
G1 X10.1 Y20 Z0.28 F5000.0 ;Move to start position
G1 X10.1 Y200.0 Z0.28 F1500.0 E15 ;Draw the first line
G1 X10.4 Y200.0 Z0.28 F5000.0 ;Move to side a little
G1 X10.4 Y20 Z0.28 F1500.0 E30 ;Draw the second line
G92 E0 ;Reset Extruder
G1 Z2.0 F3000 ;Move Z Axis up

G92 E0
G92 E0
G1 F1500 E-6.5
;LAYER_COUNT:155
;LAYER:0
M107
G0 F6000 X52.21 Y57.252 Z0.2
;TYPE:SKIRT
G1 F1500 E0
G1 F1200 X52.899 Y56.616 E0.03119
G1 X53.64 Y56.041 E0.06238
G1 X54.427 Y55.531 E0.09357
G1 X55.255 Y55.09 E0.12478
G1 X56.117 Y54.721 E0.15596
G1 X57.008 Y54.427 E0.18717
G1 X57.92 Y54.209 E0.21836
G1 X58.847 Y54.071 E0.24953
G1 X59.701 Y54.013 E0.278
G1 X60.021 Y54.004 E0.28865
G1 X60.33 Y54 E0.29892
G1 X159.293 Y54 E3.59045
G1 X159.451 Y54.001 E3.5957
G1 X160.149 Y54.011 E3.61892
G1 X161.085 Y54.065 E3.6501
G1 X162.013 Y54.197 E3.68128
G1 X162.927 Y54.409 E3.71249
G1 X163.819 Y54.698 E3.74367
G1 X164.684 Y55.061 E3.77487
G1 X165.514 Y55.497 E3.80606
G1 X166.305 Y56.002 E3.83727
G1 X167.049 Y56.573 E3.86846
G1 X167.742 Y57.205 E3.89966
G1 X168.379 Y57.893 E3.93084
G1 X168.954 Y58.634 E3.96204
G1 X169.465 Y59.42 E3.99322
G1 X169.907 Y60.248 E4.02444
G1 X170.276 Y61.11 E4.05562
G1 X170.571 Y62 E4.08681
G1 X170.789 Y62.912 E4.118
G1 X170.929 Y63.84 E4.14921
G1 X170.987 Y64.701 E4.17791
G1 X170.996 Y65.021 E4.18856
G1 X171 Y65.33 E4.19884
G1 X171 Y73.514 E4.47104
G1 X171.037 Y76.122 E4.55779
G1 X171.144 Y78.643 E4.64172
G1 X171.321 Y81.138 E4.72491
G1 X171.569 Y83.638 E4.80847
G1 X171.888 Y86.131 E4.89206
G1 X172.279 Y88.624 E4.97599
G1 X172.742 Y91.114 E5.06023
G1 X173.272 Y93.577 E5.14402
G1 X173.86 Y95.973 E5.22608
G1 X174.539 Y98.443 E5.31128
G1 X175.275 Y100.846 E5.39487
G1 X176.082 Y103.238 E5.47883
G1 X176.945 Y105.578 E5.56179
G1 X177.891 Y107.934 E5.64623
G1 X178.891 Y110.232 E5.72958
G1 X179.967 Y112.529 E5.81395
G1 X181.086 Y114.753 E5.89675
G1 X182.297 Y116.992 E5.98142
G1 X183.546 Y119.159 E6.06461
G1 X184.861 Y121.296 E6.14806
G1 X186.233 Y123.392 E6.23138
G1 X187.688 Y125.48 E6.31603
G1 X189.181 Y127.5 E6.39957
G1 X190.731 Y129.48 E6.48321
G1 X192.347 Y131.425 E6.56731
G1 X193.998 Y133.302 E6.65046
G1 X195.71 Y135.143 E6.73407
G1 X197.808 Y137.265 E6.83332
G1 X198.438 Y137.959 E6.8645
G1 X199.007 Y138.705 E6.8957
G1 X199.51 Y139.496 E6.92688
G1 X199.945 Y140.327 E6.95808
G1 X200.306 Y141.192 E6.98925
G1 X200.593 Y142.085 E7.02045
G1 X200.803 Y143 E7.05167
G1 X200.934 Y143.928 E7.08285
G1 X200.976 Y144.534 E7.10305
G1 X200.99 Y144.865 E7.11407
G1 X201 Y145.33 E7.12954
G1 X201 Y154.264 E7.42668
G1 X200.999 Y154.4 E7.43121
G1 X200.99 Y155.127 E7.45539
G1 X200.939 Y156.064 E7.4866
G1 X200.807 Y156.992 E7.51778
G1 X200.598 Y157.906 E7.54896
G1 X200.311 Y158.799 E7.58016
G1 X199.949 Y159.665 E7.61138
G1 X199.515 Y160.496 E7.64256
G1 X199.011 Y161.287 E7.67375
G1 X198.442 Y162.032 E7.70493
G1 X197.811 Y162.727 E7.73615
G1 X197.124 Y163.365 E7.76734
G1 X196.385 Y163.942 E7.79852
G1 X195.599 Y164.454 E7.82972
G1 X194.773 Y164.897 E7.8609
G1 X193.911 Y165.269 E7.89212
G1 X193.022 Y165.565 E7.92329
G1 X192.11 Y165.785 E7.95449
G1 X191.183 Y165.926 E7.98568
G1 X190.299 Y165.987 E8.01515
G1 X189.978 Y165.996 E8.02583
G1 X189.67 Y166 E8.03607
G1 X125.957 Y166 E10.15518
G1 X125.799 Y165.999 E10.16043
G1 X125.102 Y165.989 E10.18362
G1 X123.935 Y165.91 E10.22252
G1 X123.663 Y165.877 E10.23163
G1 X123.427 Y165.846 E10.23955
G1 X121.369 Y165.551 E10.3087
G1 X118.89 Y165.268 E10.39169
G1 X116.36 Y165.051 E10.47614
G1 X113.842 Y164.906 E10.56003
G1 X111.355 Y164.834 E10.64278
G1 X108.831 Y164.832 E10.72673
G1 X106.308 Y164.902 E10.81068
G1 X103.789 Y165.043 E10.89459
G1 X101.299 Y165.253 E10.97771
G1 X98.726 Y165.543 E11.06383
G1 X97.338 Y165.73 E11.11041
G1 X96.304 Y165.879 E11.14515
G1 X95.049 Y165.987 E11.18705
G1 X94.729 Y165.996 E11.1977
G1 X94.42 Y166 E11.20798
G1 X30.707 Y166 E13.32708
G1 X30.549 Y165.999 E13.33233
G1 X29.851 Y165.989 E13.35555
G1 X28.915 Y165.935 E13.38674
G1 X27.987 Y165.803 E13.41791
G1 X27.073 Y165.591 E13.44912
G1 X26.181 Y165.302 E13.4803
G1 X25.316 Y164.939 E13.5115
G1 X24.486 Y164.503 E13.54269
G1 X23.695 Y163.998 E13.5739
G1 X22.951 Y163.427 E13.60509
G1 X22.258 Y162.795 E13.63629
G1 X21.621 Y162.107 E13.66747
G1 X21.046 Y161.366 E13.69867
G1 X20.535 Y160.58 E13.72985
G1 X20.093 Y159.752 E13.76107
G1 X19.724 Y158.89 E13.79226
G1 X19.429 Y158 E13.82344
G1 X19.211 Y157.088 E13.85463
G1 X19.071 Y156.16 E13.88584
G1 X19.013 Y155.288 E13.91491
G1 X19.004 Y154.956 E13.92596
G1 X19 Y154.658 E13.93587
G1 X19 Y145.707 E14.23358
G1 X19.001 Y145.549 E14.23884
G1 X19.011 Y144.851 E14.26205
G1 X19.065 Y143.915 E14.29324
G1 X19.197 Y142.987 E14.32441
G1 X19.409 Y142.073 E14.35562
G1 X19.698 Y141.181 E14.38681
G1 X20.061 Y140.316 E14.41801
G1 X20.497 Y139.486 E14.44919
G1 X21.002 Y138.695 E14.4804
G1 X21.573 Y137.951 E14.5116
G1 X22.142 Y137.321 E14.53983
G1 X22.868 Y136.578 E14.57438
G1 X23.005 Y136.441 E14.58083
G1 X23.388 Y136.063 E14.59872
G1 X25.147 Y134.225 E14.68334
G1 X26.828 Y132.369 E14.76663
G1 X28.462 Y130.457 E14.85028
G1 X30.044 Y128.497 E14.93406
G1 X31.571 Y126.49 E15.01793
G1 X33.05 Y124.429 E15.10231
G1 X34.461 Y122.34 E15.18615
G1 X35.783 Y120.258 E15.26818
G1 X37.08 Y118.079 E15.35252
G1 X38.314 Y115.871 E15.43665
G1 X39.479 Y113.639 E15.52039
G1 X40.584 Y111.367 E15.60442
G1 X41.62 Y109.071 E15.6882
G1 X42.581 Y106.777 E15.77092
G1 X43.501 Y104.392 E15.85594
G1 X44.328 Y102.047 E15.93865
G1 X45.098 Y99.65 E16.02239
G1 X45.803 Y97.227 E16.10632
G1 X46.438 Y94.788 E16.19014
G1 X46.999 Y92.352 E16.27328
G1 X47.505 Y89.838 E16.35858
G1 X47.922 Y87.395 E16.44101
G1 X48.279 Y84.889 E16.5252
G1 X48.564 Y82.382 E16.60912
G1 X48.775 Y79.895 E16.69213
G1 X48.918 Y77.395 E16.77542
G1 X48.991 Y74.817 E16.8612
G1 X49 Y73.514 E16.90454
G1 X49 Y65.674 E17.1653
G1 X49.001 Y65.509 E17.17079
G1 X49.011 Y64.844 E17.19291
G1 X49.065 Y63.907 E17.22412
G1 X49.199 Y62.979 E17.25531
G1 X49.411 Y62.065 E17.28651
G1 X49.7 Y61.173 E17.3177
G1 X50.065 Y60.309 E17.3489
G1 X50.501 Y59.479 E17.38008
G1 X51.007 Y58.689 E17.41128
G1 X51.578 Y57.945 E17.44248
G1 X52.21 Y57.252 E17.47367
G0 F6000 X52.602 Y57.427
G1 F1200 X53.288 Y56.813 E17.50429
G1 X54.024 Y56.261 E17.53489
G1 X54.806 Y55.774 E17.56553
G1 X55.627 Y55.358 E17.59614
G1 X56.481 Y55.014 E17.62677
G1 X57.361 Y54.745 E17.65737
G1 X58.262 Y54.554 E17.68801
G1 X59.176 Y54.442 E17.71863
G1 X59.712 Y54.413 E17.73649
G1 X60.032 Y54.404 E17.74713
G1 X60.33 Y54.4 E17.75705
G1 X159.293 Y54.4 E21.04857
G1 X159.445 Y54.401 E21.05362
G1 X160.143 Y54.411 E21.07684
G1 X161.062 Y54.464 E21.10746
G1 X161.973 Y54.597 E21.13808
G1 X162.869 Y54.808 E21.1687
G1 X163.743 Y55.096 E21.1993
G1 X164.59 Y55.459 E21.22995
G1 X165.401 Y55.894 E21.26056
G1 X166.171 Y56.398 E21.29117
G1 X166.895 Y56.967 E21.3218
G1 X167.567 Y57.597 E21.35243
G1 X168.182 Y58.282 E21.38305
G1 X168.735 Y59.018 E21.41367
G1 X169.222 Y59.799 E21.44429
G1 X169.639 Y60.62 E21.47491
G1 X169.984 Y61.474 E21.50555
G1 X170.253 Y62.354 E21.53615
G1 X170.445 Y63.255 E21.56679
G1 X170.558 Y64.168 E21.59739
G1 X170.587 Y64.712 E21.61551
G1 X170.596 Y65.032 E21.62616
G1 X170.6 Y65.33 E21.63607
G1 X170.6 Y73.517 E21.90837
G1 X170.637 Y76.145 E21.99579
G1 X170.744 Y78.653 E22.07928
G1 X170.922 Y81.173 E22.1633
G1 X171.171 Y83.688 E22.24736
G1 X171.49 Y86.177 E22.33082
G1 X171.891 Y88.729 E22.41674
G1 X172.343 Y91.16 E22.49899
G1 X172.881 Y93.659 E22.58401
G1 X173.478 Y96.095 E22.66743
G1 X174.156 Y98.561 E22.75249
G1 X174.889 Y100.954 E22.83573
G1 X175.703 Y103.368 E22.92046
G1 X176.57 Y105.718 E23.00377
G1 X177.529 Y108.106 E23.08936
G1 X178.52 Y110.383 E23.17196
G1 X179.606 Y112.7 E23.25707
G1 X180.742 Y114.958 E23.34114
G1 X181.932 Y117.16 E23.42439
G1 X183.193 Y119.347 E23.50835
G1 X184.545 Y121.544 E23.59415
G1 X185.913 Y123.634 E23.67723
G1 X187.353 Y125.701 E23.76102
G1 X188.859 Y127.739 E23.8453
G1 X190.41 Y129.719 E23.92896
G1 X192.038 Y131.678 E24.01368
G1 X193.705 Y133.575 E24.09767
G1 X195.431 Y135.43 E24.18195
G1 X197.523 Y137.546 E24.28091
G1 X198.142 Y138.228 E24.31155
G1 X198.698 Y138.961 E24.34215
G1 X199.189 Y139.74 E24.37277
G1 X199.611 Y140.558 E24.40339
G1 X199.96 Y141.41 E24.43401
G1 X200.234 Y142.289 E24.46463
G1 X200.43 Y143.189 E24.49527
G1 X200.577 Y144.551 E24.54083
G1 X200.591 Y144.882 E24.55185
G1 X200.6 Y145.33 E24.56676
G1 X200.6 Y154.264 E24.8639
G1 X200.599 Y154.395 E24.86826
G1 X200.59 Y155.122 E24.89244
G1 X200.539 Y156.041 E24.92305
G1 X200.408 Y156.953 E24.9537
G1 X200.198 Y157.849 E24.98431
G1 X199.912 Y158.724 E25.01492
G1 X199.551 Y159.571 E25.04555
G1 X199.117 Y160.383 E25.07617
G1 X198.615 Y161.155 E25.1068
G1 X198.047 Y161.88 E25.13743
G1 X197.419 Y162.553 E25.16805
G1 X196.735 Y163.169 E25.19866
G1 X196 Y163.723 E25.22928
G1 X195.22 Y164.212 E25.2599
G1 X194.4 Y164.631 E25.29052
G1 X193.547 Y164.977 E25.32114
G1 X192.667 Y165.248 E25.35176
G1 X191.767 Y165.441 E25.38238
G1 X190.853 Y165.556 E25.41302
G1 X190.288 Y165.587 E25.43184
G1 X189.967 Y165.596 E25.44252
G1 X189.67 Y165.6 E25.4524
G1 X125.957 Y165.6 E27.5715
G1 X125.805 Y165.599 E27.57656
G1 X125.108 Y165.589 E27.59974
G1 X123.983 Y165.513 E27.63725
G1 X123.711 Y165.48 E27.64636
G1 X123.484 Y165.45 E27.65397
G1 X121.438 Y165.157 E27.72272
G1 X118.897 Y164.866 E27.80778
G1 X116.416 Y164.653 E27.89061
G1 X113.876 Y164.508 E27.97522
G1 X111.332 Y164.434 E28.05987
G1 X108.82 Y164.432 E28.14342
G1 X106.275 Y164.502 E28.2281
G1 X103.77 Y164.642 E28.31155
G1 X101.254 Y164.855 E28.39553
G1 X98.722 Y165.141 E28.48028
G1 X97.244 Y165.34 E28.52988
G1 X96.247 Y165.483 E28.56338
G1 X95.038 Y165.587 E28.60374
G1 X94.718 Y165.596 E28.61439
G1 X94.42 Y165.6 E28.6243
G1 X30.707 Y165.6 E30.74341
G1 X30.555 Y165.599 E30.74846
G1 X29.857 Y165.589 E30.77168
G1 X28.938 Y165.536 E30.8023
G1 X28.027 Y165.403 E30.83292
G1 X27.131 Y165.192 E30.86353
G1 X26.257 Y164.904 E30.89414
G1 X25.41 Y164.541 E30.92479
G1 X24.599 Y164.106 E30.9554
G1 X23.829 Y163.602 E30.98601
G1 X23.105 Y163.033 E31.01664
G1 X22.433 Y162.403 E31.04727
G1 X21.818 Y161.718 E31.07789
G1 X21.265 Y160.982 E31.10851
G1 X20.778 Y160.201 E31.13912
G1 X20.361 Y159.38 E31.16975
G1 X20.016 Y158.526 E31.20038
G1 X19.747 Y157.646 E31.23099
G1 X19.555 Y156.745 E31.26163
G1 X19.442 Y155.832 E31.29223
G1 X19.413 Y155.277 E31.31071
G1 X19.404 Y154.945 E31.32176
G1 X19.4 Y154.658 E31.33131
G1 X19.4 Y145.707 E31.62902
G1 X19.401 Y145.555 E31.63407
G1 X19.411 Y144.857 E31.65729
G1 X19.464 Y143.938 E31.68791
G1 X19.597 Y143.027 E31.71853
G1 X19.808 Y142.131 E31.74915
G1 X20.096 Y141.257 E31.77975
G1 X20.459 Y140.41 E31.8104
G1 X20.894 Y139.599 E31.84101
G1 X21.398 Y138.829 E31.87162
G1 X21.967 Y138.105 E31.90225
G1 X22.428 Y137.601 E31.92496
G1 X23.154 Y136.858 E31.95952
G1 X23.286 Y136.725 E31.96575
G1 X23.675 Y136.341 E31.98393
G1 X25.448 Y134.488 E32.06923
G1 X27.129 Y132.631 E32.15254
G1 X28.775 Y130.706 E32.23678
G1 X30.358 Y128.746 E32.32057
G1 X31.886 Y126.737 E32.40453
G1 X33.374 Y124.664 E32.4894
G1 X34.772 Y122.594 E32.57248
G1 X36.146 Y120.43 E32.65773
G1 X37.44 Y118.258 E32.74182
G1 X38.653 Y116.087 E32.82454
G1 X39.836 Y113.821 E32.90956
G1 X40.931 Y111.57 E32.99281
G1 X41.982 Y109.241 E33.0778
G1 X42.965 Y106.892 E33.16249
G1 X43.876 Y104.533 E33.2466
G1 X44.71 Y102.165 E33.3301
G1 X45.48 Y99.769 E33.41381
G1 X46.188 Y97.334 E33.49815
G1 X46.829 Y94.874 E33.5827
G1 X47.395 Y92.415 E33.66663
G1 X47.892 Y89.946 E33.75039
G1 X48.319 Y87.448 E33.83468
G1 X48.677 Y84.938 E33.91901
G1 X48.957 Y82.463 E34.00185
G1 X49.175 Y79.912 E34.08701
G1 X49.318 Y77.395 E34.17086
G1 X49.391 Y74.83 E34.25621
G1 X49.4 Y73.517 E34.29988
G1 X49.4 Y65.674 E34.56074
G1 X49.401 Y65.515 E34.56603
G1 X49.411 Y64.85 E34.58815
G1 X49.465 Y63.931 E34.61877
G1 X49.598 Y63.02 E34.64939
G1 X49.81 Y62.124 E34.68001
G1 X50.099 Y61.249 E34.71066
G1 X50.463 Y60.404 E34.74126
G1 X50.898 Y59.593 E34.77187
G1 X51.403 Y58.822 E34.80253
G1 X51.972 Y58.099 E34.83313
G1 X52.602 Y57.427 E34.86376
G0 F6000 X52.993 Y57.606
G1 F1200 X53.675 Y57.014 E34.8938
G1 X54.407 Y56.485 E34.92384
G1 X55.183 Y56.023 E34.95388
G1 X55.997 Y55.632 E34.98391
G1 X56.842 Y55.313 E35.01395
G1 X57.712 Y55.071 E35.04399
G1 X58.6 Y54.907 E35.07402
G1 X59.723 Y54.813 E35.1115
G1 X60.043 Y54.804 E35.12215
G1 X60.33 Y54.8 E35.1317
G1 X159.293 Y54.8 E38.42322
G1 X159.439 Y54.801 E38.42808
G1 X160.137 Y54.811 E38.4513
G1 X161.039 Y54.864 E38.48135
G1 X161.932 Y54.996 E38.51137
G1 X162.81 Y55.207 E38.54141
G1 X163.666 Y55.495 E38.57144
G1 X164.493 Y55.857 E38.60147
G1 X165.285 Y56.292 E38.63152
G1 X166.036 Y56.794 E38.66157
G1 X166.739 Y57.361 E38.69161
G1 X167.389 Y57.988 E38.72165
G1 X167.981 Y58.67 E38.75168
G1 X168.511 Y59.401 E38.78172
G1 X168.973 Y60.177 E38.81175
G1 X169.366 Y60.99 E38.84179
G1 X169.684 Y61.835 E38.87182
G1 X169.927 Y62.705 E38.90186
G1 X170.092 Y63.593 E38.9319
G1 X170.187 Y64.723 E38.96962
G1 X170.196 Y65.043 E38.98026
G1 X170.2 Y65.33 E38.98981
G1 X170.2 Y73.519 E39.26218
G1 X170.237 Y76.132 E39.3491
G1 X170.346 Y78.697 E39.43448
G1 X170.524 Y81.204 E39.51808
G1 X170.775 Y83.745 E39.603
G1 X171.096 Y86.253 E39.6871
G1 X171.49 Y88.758 E39.77144
G1 X171.952 Y91.245 E39.85557
G1 X172.495 Y93.766 E39.94135
G1 X173.09 Y96.191 E40.02439
G1 X173.767 Y98.657 E40.10945
G1 X174.51 Y101.084 E40.19387
G1 X175.321 Y103.486 E40.27819
G1 X176.211 Y105.899 E40.36373
G1 X177.134 Y108.199 E40.44616
G1 X178.169 Y110.577 E40.53242
G1 X179.237 Y112.856 E40.61613
G1 X180.398 Y115.163 E40.70203
G1 X181.592 Y117.372 E40.78555
G1 X182.849 Y119.551 E40.86922
G1 X184.187 Y121.726 E40.95415
G1 X185.583 Y123.859 E41.03894
G1 X187.036 Y125.944 E41.12346
G1 X188.538 Y127.978 E41.20756
G1 X190.117 Y129.993 E41.2927
G1 X191.73 Y131.935 E41.37667
G1 X193.411 Y133.846 E41.46132
G1 X195.121 Y135.685 E41.54484
G1 X197.239 Y137.827 E41.64503
G1 X197.845 Y138.497 E41.67508
G1 X198.389 Y139.217 E41.70509
G1 X198.868 Y139.983 E41.73514
G1 X199.276 Y140.789 E41.76519
G1 X199.612 Y141.627 E41.79522
G1 X199.873 Y142.492 E41.82527
G1 X200.056 Y143.376 E41.85529
G1 X200.177 Y144.568 E41.89514
G1 X200.191 Y144.899 E41.90616
G1 X200.2 Y145.33 E41.9205
G1 X200.2 Y154.264 E42.21765
G1 X200.199 Y154.39 E42.22184
G1 X200.19 Y155.117 E42.24602
G1 X200.139 Y156.019 E42.27607
G1 X200.008 Y156.913 E42.30612
G1 X199.799 Y157.791 E42.33614
G1 X199.513 Y158.648 E42.36619
G1 X199.152 Y159.476 E42.39623
G1 X198.72 Y160.268 E42.42624
G1 X198.219 Y161.02 E42.45629
G1 X197.653 Y161.724 E42.48634
G1 X197.028 Y162.375 E42.51635
G1 X196.347 Y162.969 E42.54641
G1 X195.616 Y163.5 E42.57646
G1 X194.842 Y163.964 E42.60647
G1 X194.029 Y164.358 E42.63652
G1 X193.185 Y164.678 E42.66654
G1 X192.315 Y164.923 E42.69661
G1 X191.428 Y165.089 E42.72662
G1 X190.277 Y165.187 E42.76504
G1 X189.956 Y165.196 E42.77572
G1 X189.67 Y165.2 E42.78523
G1 X125.957 Y165.2 E44.90434
G1 X125.811 Y165.199 E44.90919
G1 X125.114 Y165.189 E44.93238
G1 X124.032 Y165.116 E44.96845
G1 X123.76 Y165.083 E44.97756
G1 X123.54 Y165.054 E44.98494
G1 X121.469 Y164.757 E45.05453
G1 X118.973 Y164.472 E45.13808
G1 X116.405 Y164.251 E45.22381
G1 X113.912 Y164.108 E45.30687
G1 X111.343 Y164.034 E45.39235
G1 X108.809 Y164.032 E45.47663
G1 X106.278 Y164.102 E45.56084
G1 X103.748 Y164.244 E45.64512
G1 X101.211 Y164.458 E45.7298
G1 X98.622 Y164.75 E45.81646
G1 X97.231 Y164.938 E45.86314
G1 X96.19 Y165.087 E45.89812
G1 X95.027 Y165.187 E45.93695
G1 X94.707 Y165.196 E45.94759
G1 X94.42 Y165.2 E45.95714
G1 X30.707 Y165.2 E48.07624
