;FLAVOR:Marlin
;TIME:22357
;Filament used: 21.7534m
;Layer height: 0.2
;MINX:24
;MINY:49
;MINZ:0.2
;MAXX:196
;MAXY:171
;MAXZ:10
;Generated with Cura_SteamEngine master
M140 S60
M105
M190 S60
M104 S200
M105
M109 S200
M82 ;absolute extrusion mode
M201 X500.00 Y500.00 Z100.00 E5000.00 ;Setup machine max acceleration
M203 X500.00 Y500.00 Z10.00 E50.00 ;Setup machine max feedrate
M204 P500.00 R1000.00 T500.00 ;Setup Print/Retract/Travel acceleration
M205 X8.00 Y8.00 Z0.40 E5.00 ;Setup Jerk
M220 S100 ;Reset Feedrate
M221 S100 ;Reset Flowrate

G28 ;Home

G92 E0 ;Reset Extruder
G1 Z2.0 F3000 ;Move Z Axis up
G1 X10.1 Y20 Z0.28 F5000.0 ;Move to start position
G1 X10.1 Y200.0 Z0.28 F1500.0 E15 ;Draw the first line
G1 X10.4 Y200.0 Z0.28 F5000.0 ;Move to side a little
G1 X10.4 Y20 Z0.28 F1500.0 E30 ;Draw the second line
G92 E0 ;Reset Extruder
G1 Z2.0 F3000 ;Move Z Axis up

G92 E0
G92 E0
G1 F1500 E-6.5
;LAYER_COUNT:50
;LAYER:0
M107
G0 F6000 X29.412 Y50.539 Z0.2
;TYPE:SKIRT
G1 F1500 E0
G1 F1200 X30.239 Y50.097 E0.03119
G1 X31.101 Y49.727 E0.06239
G1 X31.991 Y49.431 E0.09358
G1 X32.903 Y49.213 E0.12477
G1 X33.83 Y49.072 E0.15596
G1 X34.701 Y49.013 E0.18499
G1 X35.022 Y49.004 E0.19567
G1 X35.33 Y49 E0.20592
G1 X184.293 Y49 E5.16045
G1 X184.451 Y49.001 E5.1657
G1 X185.149 Y49.011 E5.18892
G1 X186.085 Y49.065 E5.22011
G1 X187.013 Y49.197 E5.25128
G1 X187.927 Y49.409 E5.28249
G1 X188.819 Y49.698 E5.31368
G1 X189.684 Y50.061 E5.34488
G1 X190.514 Y50.497 E5.37606
G1 X191.305 Y51.002 E5.40727
G1 X192.049 Y51.573 E5.43847
G1 X192.742 Y52.205 E5.46966
G1 X193.379 Y52.893 E5.50085
G1 X193.954 Y53.634 E5.53204
G1 X194.465 Y54.42 E5.56322
G1 X194.907 Y55.248 E5.59444
G1 X195.276 Y56.11 E5.62563
G1 X195.571 Y57 E5.65681
G1 X195.789 Y57.912 E5.688
G1 X195.929 Y58.84 E5.71921
G1 X195.987 Y59.701 E5.74792
G1 X195.996 Y60.021 E5.75856
G1 X196 Y60.33 E5.76884
G1 X196 Y159.264 E9.0594
G1 X195.999 Y159.4 E9.06392
G1 X195.99 Y160.127 E9.08811
G1 X195.939 Y161.064 E9.11932
G1 X195.807 Y161.992 E9.15049
G1 X195.598 Y162.906 E9.18168
G1 X195.311 Y163.799 E9.21287
G1 X194.949 Y164.665 E9.24409
G1 X194.515 Y165.496 E9.27527
G1 X194.011 Y166.287 E9.30647
G1 X193.442 Y167.032 E9.33765
G1 X192.811 Y167.727 E9.36887
G1 X192.124 Y168.365 E9.40005
G1 X191.385 Y168.942 E9.43124
G1 X190.599 Y169.454 E9.46244
G1 X189.773 Y169.897 E9.49361
G1 X188.911 Y170.269 E9.52484
G1 X188.022 Y170.565 E9.556
G1 X187.11 Y170.785 E9.58721
G1 X186.183 Y170.926 E9.61839
G1 X185.299 Y170.987 E9.64786
G1 X184.978 Y170.996 E9.65855
G1 X184.67 Y171 E9.66879
G1 X125.707 Y171 E11.62991
G1 X125.549 Y170.999 E11.63516
G1 X124.852 Y170.989 E11.65835
G1 X123.64 Y170.904 E11.69876
G1 X123.154 Y170.843 E11.71505
G1 X122.974 Y170.819 E11.72109
G1 X121.318 Y170.583 E11.77672
G1 X118.817 Y170.299 E11.86044
G1 X116.31 Y170.085 E11.94413
G1 X113.794 Y169.943 E12.02794
G1 X111.299 Y169.871 E12.11096
G1 X108.775 Y169.871 E12.19491
G1 X106.225 Y169.942 E12.27976
G1 X103.761 Y170.082 E12.36184
G1 X101.224 Y170.297 E12.44653
G1 X98.669 Y170.587 E12.53205
G1 X97.352 Y170.766 E12.57626
G1 X96.573 Y170.877 E12.60243
G1 X95.397 Y170.981 E12.6417
G1 X95.051 Y170.993 E12.65321
G1 X94.67 Y171 E12.66589
G1 X35.707 Y171 E14.627
G1 X35.565 Y170.999 E14.63173
G1 X34.867 Y170.99 E14.65494
G1 X33.931 Y170.938 E14.68612
G1 X33.002 Y170.806 E14.71733
G1 X32.088 Y170.596 E14.74852
G1 X31.195 Y170.309 E14.77972
G1 X30.33 Y169.946 E14.81092
G1 X29.499 Y169.512 E14.8421
G1 X28.708 Y169.008 E14.8733
G1 X27.963 Y168.438 E14.9045
G1 X27.269 Y167.807 E14.9357
G1 X26.632 Y167.12 E14.96686
G1 X26.055 Y166.38 E14.99807
G1 X25.543 Y165.594 E15.02927
G1 X25.1 Y164.767 E15.06047
G1 X24.729 Y163.906 E15.09165
G1 X24.433 Y163.016 E15.12285
G1 X24.214 Y162.104 E15.15404
G1 X24.073 Y161.177 E15.18523
G1 X24.013 Y160.288 E15.21487
G1 X24.004 Y159.955 E15.22595
G1 X24 Y159.658 E15.23582
G1 X24 Y60.674 E18.52805
G1 X24.001 Y60.525 E18.533
G1 X24.01 Y59.86 E18.55512
G1 X24.063 Y58.924 E18.5863
G1 X24.195 Y57.995 E18.61751
G1 X24.406 Y57.081 E18.64871
G1 X24.694 Y56.189 E18.67989
G1 X25.057 Y55.324 E18.71109
G1 X25.492 Y54.493 E18.74229
G1 X25.996 Y53.703 E18.77345
G1 X26.566 Y52.958 E18.80465
G1 X27.198 Y52.264 E18.83587
G1 X27.886 Y51.627 E18.86706
G1 X28.626 Y51.051 E18.89825
G1 X29.412 Y50.539 E18.92945
G0 F6000 X29.791 Y50.782
G1 F1200 X30.611 Y50.364 E18.96006
G1 X31.465 Y50.019 E18.99069
G1 X32.345 Y49.749 E19.02131
G1 X33.245 Y49.557 E19.05192
G1 X34.159 Y49.443 E19.08255
G1 X34.712 Y49.413 E19.10097
G1 X35.033 Y49.404 E19.11165
G1 X35.33 Y49.4 E19.12153
G1 X184.293 Y49.4 E24.07606
G1 X184.445 Y49.401 E24.08112
G1 X185.143 Y49.411 E24.10433
G1 X186.062 Y49.464 E24.13495
G1 X186.973 Y49.597 E24.16557
G1 X187.869 Y49.808 E24.19619
G1 X188.743 Y50.096 E24.2268
G1 X189.59 Y50.459 E24.25744
G1 X190.401 Y50.894 E24.28805
G1 X191.171 Y51.398 E24.31866
G1 X191.895 Y51.967 E24.34929
G1 X192.567 Y52.597 E24.37993
G1 X193.182 Y53.282 E24.41055
G1 X193.735 Y54.018 E24.44116
G1 X194.222 Y54.799 E24.47178
G1 X194.639 Y55.62 E24.5024
G1 X194.984 Y56.474 E24.53304
G1 X195.253 Y57.354 E24.56364
G1 X195.445 Y58.255 E24.59428
G1 X195.558 Y59.168 E24.62488
G1 X195.587 Y59.712 E24.643
G1 X195.596 Y60.032 E24.65365
G1 X195.6 Y60.33 E24.66356
G1 X195.6 Y159.264 E27.95412
G1 X195.599 Y159.395 E27.95848
G1 X195.59 Y160.122 E27.98266
G1 X195.539 Y161.041 E28.01327
G1 X195.408 Y161.953 E28.04392
G1 X195.198 Y162.849 E28.07453
G1 X194.912 Y163.724 E28.10514
G1 X194.551 Y164.571 E28.13577
G1 X194.117 Y165.383 E28.16639
G1 X193.615 Y166.155 E28.19702
G1 X193.047 Y166.88 E28.22765
G1 X192.419 Y167.553 E28.25827
G1 X191.735 Y168.169 E28.28888
G1 X191 Y168.723 E28.31949
G1 X190.22 Y169.212 E28.35011
G1 X189.4 Y169.631 E28.38074
G1 X188.547 Y169.977 E28.41136
G1 X187.667 Y170.248 E28.44198
G1 X186.767 Y170.441 E28.4726
G1 X185.853 Y170.556 E28.50324
G1 X185.288 Y170.587 E28.52206
G1 X184.967 Y170.596 E28.53274
G1 X184.67 Y170.6 E28.54262
G1 X125.707 Y170.6 E30.50373
G1 X125.555 Y170.599 E30.50879
G1 X124.858 Y170.589 E30.53197
G1 X123.69 Y170.507 E30.57092
G1 X123.204 Y170.446 E30.58721
G1 X123.031 Y170.423 E30.59301
G1 X121.384 Y170.189 E30.64834
G1 X118.864 Y169.902 E30.7327
G1 X116.332 Y169.686 E30.81722
G1 X113.827 Y169.544 E30.90067
G1 X111.275 Y169.471 E30.98559
G1 X108.764 Y169.471 E31.0691
G1 X106.227 Y169.542 E31.15352
G1 X103.703 Y169.685 E31.2376
G1 X101.181 Y169.899 E31.32178
G1 X98.659 Y170.185 E31.4062
G1 X97.258 Y170.375 E31.45323
G1 X96.517 Y170.481 E31.47812
G1 X95.383 Y170.582 E31.51599
G1 X95.037 Y170.594 E31.5275
G1 X94.67 Y170.6 E31.53971
G1 X35.707 Y170.6 E33.50083
G1 X35.57 Y170.599 E33.50539
G1 X34.872 Y170.59 E33.5286
G1 X33.953 Y170.538 E33.55922
G1 X33.042 Y170.407 E33.58983
G1 X32.146 Y170.197 E33.62044
G1 X31.271 Y169.91 E33.65107
G1 X30.424 Y169.548 E33.6817
G1 X29.612 Y169.114 E33.71233
G1 X28.841 Y168.612 E33.74293
G1 X28.116 Y168.044 E33.77356
G1 X27.443 Y167.415 E33.8042
G1 X26.828 Y166.731 E33.83479
G1 X26.274 Y165.996 E33.8654
G1 X25.786 Y165.215 E33.89604
G1 X25.367 Y164.395 E33.92666
G1 X25.021 Y163.542 E33.95728
G1 X24.751 Y162.662 E33.98789
G1 X24.558 Y161.761 E34.01854
G1 X24.444 Y160.848 E34.04914
G1 X24.413 Y160.277 E34.06816
G1 X24.404 Y159.944 E34.07924
G1 X24.4 Y159.658 E34.08876
G1 X24.4 Y60.674 E37.38098
G1 X24.401 Y60.531 E37.38573
G1 X24.41 Y59.866 E37.40785
G1 X24.462 Y58.946 E37.4385
G1 X24.594 Y58.035 E37.46912
G1 X24.805 Y57.139 E37.49973
G1 X25.092 Y56.264 E37.53036
G1 X25.455 Y55.418 E37.56098
G1 X25.889 Y54.606 E37.5916
G1 X26.392 Y53.835 E37.62222
G1 X26.961 Y53.111 E37.65285
G1 X27.589 Y52.439 E37.68344
G1 X28.274 Y51.823 E37.71408
G1 X29.01 Y51.27 E37.7447
G1 X29.791 Y50.782 E37.77533
G0 F6000 X30.169 Y51.031
G1 F1200 X30.982 Y50.638 E37.80537
G1 X31.827 Y50.318 E37.83542
G1 X32.696 Y50.075 E37.86543
G1 X33.584 Y49.909 E37.89548
G1 X34.723 Y49.813 E37.93349
G1 X35.044 Y49.804 E37.94417
G1 X35.33 Y49.8 E37.95369
G1 X184.293 Y49.8 E42.90822
G1 X184.439 Y49.801 E42.91307
G1 X185.137 Y49.811 E42.93629
G1 X186.039 Y49.864 E42.96634
G1 X186.932 Y49.996 E42.99637
G1 X187.81 Y50.207 E43.0264
G1 X188.666 Y50.495 E43.05644
G1 X189.493 Y50.857 E43.08647
G1 X190.285 Y51.292 E43.11652
G1 X191.036 Y51.794 E43.14657
G1 X191.739 Y52.361 E43.1766
G1 X192.389 Y52.988 E43.20664
G1 X192.981 Y53.67 E43.23668
G1 X193.511 Y54.401 E43.26671
G1 X193.973 Y55.177 E43.29675
G1 X194.366 Y55.99 E43.32678
G1 X194.684 Y56.835 E43.35681
G1 X194.927 Y57.705 E43.38686
G1 X195.092 Y58.593 E43.4169
G1 X195.187 Y59.723 E43.45461
G1 X195.196 Y60.043 E43.46526
G1 X195.2 Y60.33 E43.47481
G1 X195.2 Y159.264 E46.76536
G1 X195.199 Y159.39 E46.76956
G1 X195.19 Y160.117 E46.79374
G1 X195.139 Y161.019 E46.82379
G1 X195.008 Y161.913 E46.85384
G1 X194.799 Y162.791 E46.88386
G1 X194.513 Y163.648 E46.91391
G1 X194.152 Y164.476 E46.94395
G1 X193.72 Y165.268 E46.97396
G1 X193.219 Y166.02 E47.00401
G1 X192.653 Y166.724 E47.03405
G1 X192.028 Y167.375 E47.06407
G1 X191.347 Y167.969 E47.09412
G1 X190.616 Y168.5 E47.12418
G1 X189.842 Y168.964 E47.15419
G1 X189.029 Y169.358 E47.18424
G1 X188.185 Y169.678 E47.21426
G1 X187.315 Y169.923 E47.24432
G1 X186.428 Y170.089 E47.27434
G1 X185.277 Y170.187 E47.31276
G1 X184.956 Y170.196 E47.32344
G1 X184.67 Y170.2 E47.33295
G1 X125.707 Y170.2 E49.29407
G1 X125.561 Y170.199 E49.29892
G1 X124.864 Y170.189 E49.32211
G1 X123.74 Y170.111 E49.35958
G1 X123.254 Y170.05 E49.37587
G1 X123.087 Y170.027 E49.38148
G1 X121.414 Y169.789 E49.43769
G1 X118.907 Y169.503 E49.52161
G1 X116.388 Y169.289 E49.60569
G1 X113.826 Y169.144 E49.69104
G1 X111.287 Y169.071 E49.77553
G1 X108.753 Y169.071 E49.85981
G1 X106.227 Y169.142 E49.94385
G1 X103.685 Y169.286 E50.02854
G1 X101.135 Y169.502 E50.11365
G1 X98.565 Y169.794 E50.19968
G1 X97.264 Y169.97 E50.24335
G1 X96.46 Y170.085 E50.27036
G1 X95.37 Y170.182 E50.30676
G1 X95.024 Y170.194 E50.31827
G1 X94.67 Y170.2 E50.33005
G1 X35.707 Y170.2 E52.29117
G1 X35.575 Y170.199 E52.29556
G1 X34.877 Y170.19 E52.31878
G1 X33.976 Y170.139 E52.34879
G1 X33.082 Y170.007 E52.37885
G1 X32.204 Y169.798 E52.40887
G1 X31.347 Y169.511 E52.43893
G1 X30.52 Y169.15 E52.46894
G1 X29.727 Y168.717 E52.49899
G1 X28.976 Y168.216 E52.52902
G1 X28.272 Y167.65 E52.55906
G1 X27.621 Y167.024 E52.5891
G1 X27.028 Y166.343 E52.61913
G1 X26.498 Y165.612 E52.64916
G1 X26.034 Y164.837 E52.67921
G1 X25.64 Y164.024 E52.70926
G1 X25.32 Y163.18 E52.73928
G1 X25.076 Y162.31 E52.76933
G1 X24.91 Y161.422 E52.79938
G1 X24.813 Y160.267 E52.83793
G1 X24.804 Y159.934 E52.84901
G1 X24.8 Y159.658 E52.85819
G1 X24.8 Y60.674 E56.15041
G1 X24.801 Y60.536 E56.155
G1 X24.81 Y59.871 E56.17712
G1 X24.862 Y58.969 E56.20717
G1 X24.994 Y58.076 E56.23719
G1 X25.204 Y57.198 E56.26722
G1 X25.491 Y56.341 E56.29728
G1 X25.853 Y55.514 E56.32731
G1 X26.286 Y54.722 E56.35733
G1 X26.788 Y53.971 E56.38737
G1 X27.355 Y53.267 E56.41744
G1 X27.981 Y52.617 E56.44745
G1 X28.662 Y52.024 E56.47749
G1 X29.394 Y51.494 E56.50754
G1 X30.169 Y51.031 E56.53757
G1 F1500 E50.03757
;MESH:MT-table-hinges-hing.stl
G0 F6000 X36.21 Y59.335
G0 X36.21 Y61.21
G0 X36.182 Y158.818
G0 X93.818 Y158.818
G0 X93.818 Y144.818
G0 X125.428 Y145.572
G0 X126 Y159
;TYPE:WALL-INNER
G1 F1500 E56.53757
G1 F1200 X126 Y145 E57.00321
G1 X94 Y145 E58.06754
G1 X94 Y159 E58.53318
G1 X36 Y159 E60.46227
G1 X36 Y61 E63.72176
G1 X184 Y61 E68.64426
G1 X184 Y159 E71.90375
G1 X126 Y159 E73.83284
G0 F6000 X125.6 Y159.4
G1 F1200 X125.6 Y145.4 E74.29848
G1 X94.4 Y145.4 E75.3362
G1 X94.4 Y159.4 E75.80184
G1 X35.6 Y159.4 E77.75754
G1 X35.6 Y60.6 E81.04364
G1 X184.4 Y60.6 E85.99275
G1 X184.4 Y159.4 E89.27885
G1 X125.6 Y159.4 E91.23454
G0 F6000 X125.2 Y159.8
;TYPE:WALL-OUTER
G1 F1200 X125.2 Y145.8 E91.70018
G1 X94.8 Y145.8 E92.71129
G1 X94.8 Y159.8 E93.17693
G1 X35.2 Y159.8 E95.15924
G1 X35.2 Y60.2 E98.47195
G1 X184.8 Y60.2 E103.44766
G1 X184.8 Y159.8 E106.76037
G1 X125.2 Y159.8 E108.74268
G0 F6000 X125.47 Y159.53
G0 X126.11 Y158.61
G0 X126.39 Y158.61
;TYPE:SKIN
G1 F1200 X126.39 Y144.61 E109.20832
G1 X93.61 Y144.61 E110.29859
G1 X93.61 Y158.61 E110.76423
G1 X36.39 Y158.61 E112.66737
G1 X36.39 Y61.39 E115.90092
G1 X183.61 Y61.39 E120.79748
G1 X183.61 Y158.61 E124.03103
G1 X126.39 Y158.61 E125.93418
G1 F1500 E119.43418
G0 F6000 X126.11 Y158.61
G0 X125.428 Y145.572
G0 X94.572 Y145.572
G0 X93.818 Y158.818
G0 X36.826 Y158.89
G0 X36.826 Y158.449
G1 F1500 E125.93418
G1 F1200 X36.549 Y158.172 E125.94721
G0 F6000 X36.549 Y157.606
G1 F1200 X37.392 Y158.449 E125.98686
G0 F6000 X37.958 Y158.449
G1 F1200 X36.549 Y157.04 E126.05313
G0 F6000 X36.549 Y156.474
G1 F1200 X38.523 Y158.449 E126.14601
G0 F6000 X39.089 Y158.449
G1 F1200 X36.549 Y155.909 E126.26548
G0 F6000 X36.549 Y155.343
G1 F1200 X39.655 Y158.449 E126.41158
G0 F6000 X40.22 Y158.449
G1 F1200 X36.549 Y154.777 E126.58427
G0 F6000 X36.549 Y154.212
G1 F1200 X40.786 Y158.449 E126.78357
G0 F6000 X41.352 Y158.449
G1 F1200 X36.549 Y153.646 E127.00949
G0 F6000 X36.549 Y153.08
G1 F1200 X41.917 Y158.449 E127.26201
G0 F6000 X42.483 Y158.449
G1 F1200 X36.549 Y152.515 E127.54112
G0 F6000 X36.549 Y151.949
G1 F1200 X43.049 Y158.449 E127.84686
G0 F6000 X43.615 Y158.449
G1 F1200 X36.549 Y151.383 E128.17923
G0 F6000 X36.549 Y150.818
G1 F1200 X44.18 Y158.449 E128.53816
G0 F6000 X44.746 Y158.449
G1 F1200 X36.549 Y150.252 E128.92373
G0 F6000 X36.549 Y149.686
G1 F1200 X45.312 Y158.449 E129.33591
G0 F6000 X45.877 Y158.449
G1 F1200 X36.549 Y149.121 E129.77467
G0 F6000 X36.549 Y148.555
G1 F1200 X46.443 Y158.449 E130.24006
G0 F6000 X47.009 Y158.449
G1 F1200 X36.549 Y147.989 E130.73206
G0 F6000 X36.549 Y147.423
G1 F1200 X47.574 Y158.449 E131.25067
G0 F6000 X48.14 Y158.449
G1 F1200 X36.549 Y146.858 E131.79587
G0 F6000 X36.549 Y146.292
G1 F1200 X48.706 Y158.449 E132.3677
G0 F6000 X49.271 Y158.449
G1 F1200 X36.549 Y145.726 E132.96613
G0 F6000 X36.549 Y145.161
G1 F1200 X49.837 Y158.449 E133.59115
G0 F6000 X50.403 Y158.449
G1 F1200 X36.549 Y144.595 E134.2428
G0 F6000 X36.549 Y144.029
G1 F1200 X50.968 Y158.449 E134.92105
G0 F6000 X51.534 Y158.449
G1 F1200 X36.549 Y143.464 E135.6259
G0 F6000 X36.549 Y142.898
G1 F1200 X52.1 Y158.449 E136.35737
G0 F6000 X52.666 Y158.449
G1 F1200 X36.549 Y142.332 E137.11547
G0 F6000 X36.549 Y141.767
G1 F1200 X53.231 Y158.449 E137.90014
G0 F6000 X53.797 Y158.449
G1 F1200 X36.549 Y141.201 E138.71143
G0 F6000 X36.549 Y140.635
G1 F1200 X54.363 Y158.449 E139.54935
G0 F6000 X54.928 Y158.449
G1 F1200 X36.549 Y140.07 E140.41384
G0 F6000 X36.549 Y139.504
G1 F1200 X55.494 Y158.449 E141.30495
G0 F6000 X56.06 Y158.449
G1 F1200 X36.549 Y138.938 E142.22269
G0 F6000 X36.549 Y138.373
G1 F1200 X56.625 Y158.449 E143.167
G0 F6000 X57.191 Y158.449
G1 F1200 X36.549 Y137.807 E144.13794
G0 F6000 X36.549 Y137.241
G1 F1200 X57.757 Y158.449 E145.1355
G0 F6000 X58.322 Y158.449
G1 F1200 X36.549 Y136.675 E146.15966
G0 F6000 X36.549 Y136.11
G1 F1200 X58.888 Y158.449 E147.21042
G0 F6000 X59.454 Y158.449
G1 F1200 X36.549 Y135.544 E148.2878
G0 F6000 X36.549 Y134.978
G1 F1200 X60.019 Y158.449 E149.39178
G0 F6000 X60.585 Y158.449
G1 F1200 X36.549 Y134.413 E150.52236
G0 F6000 X36.549 Y133.847
G1 F1200 X61.151 Y158.449 E151.67956
G0 F6000 X61.716 Y158.449
G1 F1200 X36.549 Y133.281 E152.86336
G0 F6000 X36.549 Y132.716
G1 F1200 X62.282 Y158.449 E154.07376
G0 F6000 X62.848 Y158.449
G1 F1200 X36.549 Y132.15 E155.31079
G0 F6000 X36.549 Y131.584
G1 F1200 X63.414 Y158.449 E156.57444
G0 F6000 X63.979 Y158.449
G1 F1200 X36.549 Y131.019 E157.86466
G0 F6000 X36.549 Y130.453
G1 F1200 X64.545 Y158.449 E159.1815
G0 F6000 X65.111 Y158.449
G1 F1200 X36.549 Y129.887 E160.52497
G0 F6000 X36.549 Y129.322
G1 F1200 X65.676 Y158.449 E161.89502
G0 F6000 X66.242 Y158.449
G1 F1200 X36.549 Y128.756 E163.29169
G0 F6000 X36.549 Y128.19
G1 F1200 X66.808 Y158.449 E164.71498
G0 F6000 X67.373 Y158.449
G1 F1200 X36.549 Y127.624 E166.16487
G0 F6000 X36.549 Y127.059
G1 F1200 X67.939 Y158.449 E167.64136
G0 F6000 X68.505 Y158.449
G1 F1200 X36.549 Y126.493 E169.14447
G0 F6000 X36.549 Y125.927
G1 F1200 X69.07 Y158.449 E170.67418
G0 F6000 X69.636 Y158.449
G1 F1200 X36.549 Y125.362 E172.23049
G0 F6000 X36.549 Y124.796
