;FLAVOR:Marlin
;TIME:22457
;Filament used: 21.6836m
;Layer height: 0.2
;MINX:53.5
;MINY:54
;MINZ:0.2
;MAXX:166.5
;MAXY:166
;MAXZ:35
;Generated with Cura_SteamEngine master
M140 S60
M105
M190 S60
M104 S200
M105
M109 S200
M82 ;absolute extrusion mode
M201 X500.00 Y500.00 Z100.00 E5000.00 ;Setup machine max acceleration
M203 X500.00 Y500.00 Z10.00 E50.00 ;Setup machine max feedrate
M204 P500.00 R1000.00 T500.00 ;Setup Print/Retract/Travel acceleration
M205 X8.00 Y8.00 Z0.40 E5.00 ;Setup Jerk
M220 S100 ;Reset Feedrate
M221 S100 ;Reset Flowrate

G28 ;Home

G92 E0 ;Reset Extruder
G1 Z2.0 F3000 ;Move Z Axis up
G1 X10.1 Y20 Z0.28 F5000.0 ;Move to start position
G1 X10.1 Y200.0 Z0.28 F1500.0 E15 ;Draw the first line
G1 X10.4 Y200.0 Z0.28 F5000.0 ;Move to side a little
G1 X10.4 Y20 Z0.28 F1500.0 E30 ;Draw the second line
G92 E0 ;Reset Extruder
G1 Z2.0 F3000 ;Move Z Axis up

G92 E0
G92 E0
G1 F1500 E-6.5
;LAYER_COUNT:175
;LAYER:0
M107
G0 F6000 X56.698 Y57.264 Z0.2
;TYPE:SKIRT
G1 F1500 E0
G1 F1200 X57.386 Y56.627 E0.03119
G1 X58.126 Y56.051 E0.06237
G1 X58.912 Y55.539 E0.09357
G1 X59.739 Y55.097 E0.12476
G1 X60.601 Y54.727 E0.15596
G1 X61.491 Y54.431 E0.18716
G1 X62.403 Y54.213 E0.21835
G1 X63.33 Y54.072 E0.24953
G1 X64.201 Y54.013 E0.27857
G1 X64.522 Y54.004 E0.28925
G1 X64.83 Y54 E0.29949
G1 X154.793 Y54 E3.29168
G1 X154.951 Y54.001 E3.29693
G1 X155.649 Y54.011 E3.32015
G1 X156.585 Y54.065 E3.35133
G1 X157.513 Y54.197 E3.38251
G1 X158.427 Y54.409 E3.41372
G1 X159.319 Y54.698 E3.4449
G1 X160.184 Y55.061 E3.4761
G1 X161.014 Y55.497 E3.50729
G1 X161.805 Y56.002 E3.5385
G1 X162.549 Y56.573 E3.56969
G1 X163.242 Y57.205 E3.60089
G1 X163.879 Y57.893 E3.63207
G1 X164.454 Y58.634 E3.66327
G1 X164.965 Y59.42 E3.69445
G1 X165.407 Y60.248 E3.72567
G1 X165.776 Y61.11 E3.75685
G1 X166.071 Y62 E3.78804
G1 X166.289 Y62.912 E3.81923
G1 X166.429 Y63.84 E3.85044
G1 X166.487 Y64.701 E3.87914
G1 X166.496 Y65.021 E3.88979
G1 X166.5 Y65.33 E3.90007
G1 X166.5 Y154.264 E6.85803
G1 X166.499 Y154.4 E6.86255
G1 X166.49 Y155.127 E6.88673
G1 X166.439 Y156.064 E6.91794
G1 X166.307 Y156.992 E6.94912
G1 X166.098 Y157.906 E6.9803
G1 X165.811 Y158.799 E7.0115
G1 X165.449 Y159.665 E7.04272
G1 X165.015 Y160.496 E7.0739
G1 X164.511 Y161.287 E7.1051
G1 X163.942 Y162.032 E7.13627
G1 X163.311 Y162.727 E7.1675
G1 X162.624 Y163.365 E7.19868
G1 X161.885 Y163.942 E7.22986
G1 X161.099 Y164.454 E7.26106
G1 X160.273 Y164.897 E7.29224
G1 X159.411 Y165.269 E7.32346
G1 X158.522 Y165.565 E7.35463
G1 X157.61 Y165.785 E7.38583
G1 X156.683 Y165.926 E7.41702
G1 X155.799 Y165.987 E7.44649
G1 X155.478 Y165.996 E7.45717
G1 X155.17 Y166 E7.46742
G1 X65.207 Y166 E10.4596
G1 X65.065 Y165.999 E10.46432
G1 X64.367 Y165.99 E10.48754
G1 X63.431 Y165.938 E10.51872
G1 X62.502 Y165.806 E10.54993
G1 X61.588 Y165.596 E10.58112
G1 X60.695 Y165.309 E10.61232
G1 X59.83 Y164.946 E10.64352
G1 X58.999 Y164.512 E10.6747
G1 X58.208 Y164.008 E10.70589
G1 X57.463 Y163.438 E10.73709
G1 X56.769 Y162.807 E10.76829
G1 X56.132 Y162.12 E10.79945
G1 X55.555 Y161.38 E10.83066
G1 X55.043 Y160.594 E10.86186
G1 X54.6 Y159.767 E10.89306
G1 X54.229 Y158.906 E10.92425
G1 X53.933 Y158.016 E10.95544
G1 X53.714 Y157.104 E10.98664
G1 X53.573 Y156.177 E11.01782
G1 X53.513 Y155.288 E11.04746
G1 X53.504 Y154.955 E11.05854
G1 X53.5 Y154.658 E11.06842
G1 X53.5 Y65.674 E14.02804
G1 X53.501 Y65.525 E14.03299
G1 X53.51 Y64.86 E14.05511
G1 X53.563 Y63.924 E14.0863
G1 X53.695 Y62.995 E14.11751
G1 X53.906 Y62.081 E14.1487
G1 X54.194 Y61.189 E14.17988
G1 X54.557 Y60.324 E14.21108
G1 X54.992 Y59.493 E14.24228
G1 X55.496 Y58.703 E14.27345
G1 X56.066 Y57.958 E14.30464
G1 X56.698 Y57.264 E14.33586
G0 F6000 X57.089 Y57.439
G1 F1200 X57.774 Y56.823 E14.36651
G1 X58.51 Y56.27 E14.39712
G1 X59.291 Y55.782 E14.42775
G1 X60.111 Y55.364 E14.45837
G1 X60.965 Y55.019 E14.489
G1 X61.845 Y54.749 E14.51962
G1 X62.745 Y54.557 E14.55022
G1 X63.659 Y54.443 E14.58086
G1 X64.212 Y54.413 E14.59928
G1 X64.533 Y54.404 E14.60996
G1 X64.83 Y54.4 E14.61984
G1 X154.793 Y54.4 E17.61202
G1 X154.945 Y54.401 E17.61708
G1 X155.643 Y54.411 E17.64029
G1 X156.562 Y54.464 E17.67091
G1 X157.473 Y54.597 E17.70153
G1 X158.369 Y54.808 E17.73215
G1 X159.243 Y55.096 E17.76276
G1 X160.09 Y55.459 E17.79341
G1 X160.901 Y55.894 E17.82401
G1 X161.671 Y56.398 E17.85462
G1 X162.395 Y56.967 E17.88525
G1 X163.067 Y57.597 E17.91589
G1 X163.682 Y58.282 E17.94651
G1 X164.235 Y59.018 E17.97712
G1 X164.722 Y59.799 E18.00774
G1 X165.139 Y60.62 E18.03836
G1 X165.484 Y61.474 E18.069
G1 X165.753 Y62.354 E18.0996
G1 X165.945 Y63.255 E18.13024
G1 X166.058 Y64.168 E18.16084
G1 X166.087 Y64.712 E18.17896
G1 X166.096 Y65.032 E18.18961
G1 X166.1 Y65.33 E18.19952
G1 X166.1 Y154.264 E21.15748
G1 X166.099 Y154.395 E21.16184
G1 X166.09 Y155.122 E21.18602
G1 X166.039 Y156.041 E21.21663
G1 X165.908 Y156.953 E21.24728
G1 X165.698 Y157.849 E21.27788
G1 X165.412 Y158.724 E21.3085
G1 X165.051 Y159.571 E21.33913
G1 X164.617 Y160.383 E21.36975
G1 X164.115 Y161.155 E21.40038
G1 X163.547 Y161.88 E21.43101
G1 X162.919 Y162.553 E21.46163
G1 X162.235 Y163.169 E21.49224
G1 X161.5 Y163.723 E21.52285
G1 X160.72 Y164.212 E21.55347
G1 X159.9 Y164.631 E21.5841
G1 X159.047 Y164.977 E21.61472
G1 X158.167 Y165.248 E21.64534
G1 X157.267 Y165.441 E21.67596
G1 X156.353 Y165.556 E21.7066
G1 X155.788 Y165.587 E21.72542
G1 X155.467 Y165.596 E21.7361
G1 X155.17 Y165.6 E21.74598
G1 X65.207 Y165.6 E24.73816
G1 X65.07 Y165.599 E24.74271
G1 X64.372 Y165.59 E24.76593
G1 X63.453 Y165.538 E24.79655
G1 X62.542 Y165.407 E24.82716
G1 X61.646 Y165.197 E24.85777
G1 X60.771 Y164.91 E24.8884
G1 X59.924 Y164.548 E24.91903
G1 X59.112 Y164.114 E24.94965
G1 X58.341 Y163.612 E24.98025
G1 X57.616 Y163.044 E25.01089
G1 X56.943 Y162.415 E25.04153
G1 X56.328 Y161.731 E25.07212
G1 X55.774 Y160.996 E25.10273
G1 X55.286 Y160.215 E25.13336
G1 X54.867 Y159.395 E25.16399
G1 X54.521 Y158.542 E25.19461
G1 X54.251 Y157.662 E25.22522
G1 X54.058 Y156.761 E25.25587
G1 X53.944 Y155.848 E25.28647
G1 X53.913 Y155.277 E25.30549
G1 X53.904 Y154.944 E25.31657
G1 X53.9 Y154.658 E25.32608
G1 X53.9 Y65.674 E28.2857
G1 X53.901 Y65.531 E28.29046
G1 X53.91 Y64.866 E28.31258
G1 X53.962 Y63.946 E28.34323
G1 X54.094 Y63.035 E28.37384
G1 X54.305 Y62.139 E28.40446
G1 X54.592 Y61.264 E28.43509
G1 X54.955 Y60.418 E28.46571
G1 X55.389 Y59.606 E28.49633
G1 X55.892 Y58.835 E28.52695
G1 X56.461 Y58.111 E28.55758
G1 X57.089 Y57.439 E28.58817
G0 F6000 X57.481 Y57.617
G1 F1200 X58.162 Y57.024 E28.6182
G1 X58.894 Y56.494 E28.64826
G1 X59.669 Y56.031 E28.67829
G1 X60.482 Y55.638 E28.70832
G1 X61.327 Y55.318 E28.73837
G1 X62.196 Y55.075 E28.76838
G1 X63.084 Y54.909 E28.79843
G1 X64.223 Y54.813 E28.83645
G1 X64.544 Y54.804 E28.84713
G1 X64.83 Y54.8 E28.85664
G1 X154.793 Y54.8 E31.84882
G1 X154.939 Y54.801 E31.85368
G1 X155.637 Y54.811 E31.8769
G1 X156.539 Y54.864 E31.90695
G1 X157.432 Y54.996 E31.93697
G1 X158.31 Y55.207 E31.96701
G1 X159.166 Y55.495 E31.99705
G1 X159.993 Y55.857 E32.02707
G1 X160.785 Y56.292 E32.05713
G1 X161.536 Y56.794 E32.08717
G1 X162.239 Y57.361 E32.11721
G1 X162.889 Y57.988 E32.14725
G1 X163.481 Y58.67 E32.17729
G1 X164.011 Y59.401 E32.20732
G1 X164.473 Y60.177 E32.23736
G1 X164.866 Y60.99 E32.26739
G1 X165.184 Y61.835 E32.29742
G1 X165.427 Y62.705 E32.32746
G1 X165.592 Y63.593 E32.3575
G1 X165.687 Y64.723 E32.39522
G1 X165.696 Y65.043 E32.40587
G1 X165.7 Y65.33 E32.41541
G1 X165.7 Y154.264 E35.37337
G1 X165.699 Y154.39 E35.37756
G1 X165.69 Y155.117 E35.40174
G1 X165.639 Y156.019 E35.43179
G1 X165.508 Y156.913 E35.46184
G1 X165.299 Y157.791 E35.49186
G1 X165.013 Y158.648 E35.52191
G1 X164.652 Y159.476 E35.55195
G1 X164.22 Y160.268 E35.58196
G1 X163.719 Y161.02 E35.61201
G1 X163.153 Y161.724 E35.64206
G1 X162.528 Y162.375 E35.67207
G1 X161.847 Y162.969 E35.70213
G1 X161.116 Y163.5 E35.73218
G1 X160.342 Y163.964 E35.7622
G1 X159.529 Y164.358 E35.79224
G1 X158.685 Y164.678 E35.82227
G1 X157.815 Y164.923 E35.85233
G1 X156.928 Y165.089 E35.88234
G1 X155.777 Y165.187 E35.92076
G1 X155.456 Y165.196 E35.93144
G1 X155.17 Y165.2 E35.94096
G1 X65.207 Y165.2 E38.93314
G1 X65.075 Y165.199 E38.93753
G1 X64.377 Y165.19 E38.96075
G1 X63.476 Y165.139 E38.99076
G1 X62.582 Y165.007 E39.02082
G1 X61.704 Y164.798 E39.05084
G1 X60.847 Y164.511 E39.0809
G1 X60.02 Y164.15 E39.11091
G1 X59.227 Y163.717 E39.14096
G1 X58.476 Y163.216 E39.17099
G1 X57.772 Y162.65 E39.20103
G1 X57.121 Y162.024 E39.23107
G1 X56.528 Y161.343 E39.2611
G1 X55.998 Y160.612 E39.29113
G1 X55.534 Y159.837 E39.32118
G1 X55.14 Y159.024 E39.35123
G1 X54.82 Y158.18 E39.38125
G1 X54.576 Y157.31 E39.4113
G1 X54.41 Y156.422 E39.44135
G1 X54.313 Y155.267 E39.4799
G1 X54.304 Y154.934 E39.49098
G1 X54.3 Y154.658 E39.50016
G1 X54.3 Y65.674 E42.45978
G1 X54.301 Y65.536 E42.46437
G1 X54.31 Y64.871 E42.48649
G1 X54.362 Y63.969 E42.51654
G1 X54.494 Y63.076 E42.54656
G1 X54.704 Y62.198 E42.57659
G1 X54.991 Y61.341 E42.60665
G1 X55.353 Y60.514 E42.63667
G1 X55.786 Y59.722 E42.6667
G1 X56.288 Y58.971 E42.69674
G1 X56.855 Y58.267 E42.72681
G1 X57.481 Y57.617 E42.75682
G1 F1500 E36.25682
;MESH:MT-finger-grip.stl
G0 F6000 X101.674 Y89.987
G0 X99.801 Y89.986
G0 X101.732 Y94.012
G0 X103.116 Y95.617
G0 X104.566 Y96.551
G0 X107 Y97.929
;TYPE:WALL-INNER
G1 F1500 E42.75682
G1 F1200 X107 Y97.999 E42.75915
G1 X113 Y98 E42.95871
G1 X113 Y97.929 E42.96107
G1 X113.141 Y97.929 E42.96576
G1 X115.328 Y97.287 E43.04157
G1 X117.246 Y96.053 E43.11743
G1 X118.731 Y94.34 E43.19283
G1 X119.68 Y92.268 E43.26863
G1 X120.007 Y90.014 E43.34438
G1 X119.689 Y87.758 E43.42016
G1 X118.745 Y85.682 E43.49601
G1 X117.255 Y83.956 E43.57185
G1 X115.328 Y82.715 E43.64808
G1 X113.141 Y82.071 E43.72391
G1 X113 Y82.071 E43.7286
G1 X113 Y82.001 E43.73093
G1 X107 Y82 E43.93049
G1 X107 Y82.071 E43.93285
G1 X106.859 Y82.071 E43.93754
G1 X104.672 Y82.713 E44.01335
G1 X102.754 Y83.947 E44.0892
G1 X101.269 Y85.66 E44.16461
G1 X100.32 Y87.732 E44.24041
G1 X99.993 Y89.986 E44.31616
G1 X100.311 Y92.242 E44.39194
G1 X101.255 Y94.318 E44.46779
G1 X102.745 Y96.044 E44.54363
G1 X104.672 Y97.285 E44.61986
G1 X106.859 Y97.929 E44.69569
G1 X107 Y97.929 E44.70038
G0 F6000 X106.917 Y97.529
G1 F1200 X107.4 Y97.529 E44.71644
G1 X107.4 Y97.599 E44.71877
G1 X112.6 Y97.6 E44.89172
G1 X112.6 Y97.53 E44.89405
G1 X113.083 Y97.529 E44.91012
G1 X115.16 Y96.919 E44.98212
G1 X116.981 Y95.748 E45.05412
G1 X118.391 Y94.121 E45.12573
G1 X119.292 Y92.154 E45.19769
G1 X119.603 Y90.013 E45.26965
G1 X119.301 Y87.871 E45.3416
G1 X118.405 Y85.9 E45.41361
G1 X116.99 Y84.261 E45.48563
G1 X115.16 Y83.082 E45.55803
G1 X113.083 Y82.471 E45.63004
G1 X112.6 Y82.471 E45.6461
G1 X112.6 Y82.401 E45.64843
G1 X107.4 Y82.4 E45.82138
G1 X107.4 Y82.47 E45.82371
G1 X106.917 Y82.471 E45.83978
G1 X104.84 Y83.081 E45.91178
G1 X103.019 Y84.252 E45.98379
G1 X101.609 Y85.879 E46.05539
G1 X100.708 Y87.846 E46.12735
G1 X100.397 Y89.987 E46.19931
G1 X100.699 Y92.129 E46.27126
G1 X101.595 Y94.1 E46.34327
G1 X103.01 Y95.739 E46.41529
G1 X104.84 Y96.918 E46.48769
G1 X106.917 Y97.529 E46.5597
G0 F6000 X107.8 Y97.129
;TYPE:WALL-OUTER
G1 F1200 X107.8 Y97.199 E46.56203
G1 X112.2 Y97.2 E46.70837
G1 X112.2 Y97.13 E46.7107
G1 X113.025 Y97.129 E46.73814
G1 X114.992 Y96.551 E46.80633
G1 X116.716 Y95.443 E46.87449
G1 X118.051 Y93.902 E46.9423
G1 X118.904 Y92.04 E47.01042
G1 X119.199 Y90.012 E47.07858
G1 X118.913 Y87.984 E47.1467
G1 X118.065 Y86.118 E47.21488
G1 X116.725 Y84.566 E47.28307
G1 X114.992 Y83.449 E47.35165
G1 X113.025 Y82.871 E47.41984
G1 X112.2 Y82.871 E47.44728
G1 X112.2 Y82.801 E47.44961
G1 X107.8 Y82.8 E47.59595
G1 X107.8 Y82.87 E47.59828
G1 X106.975 Y82.871 E47.62572
G1 X105.008 Y83.449 E47.69391
G1 X103.284 Y84.557 E47.76207
G1 X101.949 Y86.098 E47.82988
G1 X101.096 Y87.96 E47.898
G1 X100.801 Y89.988 E47.96616
G1 X101.087 Y92.016 E48.03428
G1 X101.935 Y93.882 E48.10245
G1 X103.275 Y95.434 E48.17065
G1 X105.008 Y96.551 E48.23923
G1 X106.975 Y97.129 E48.30741
G1 X107.8 Y97.129 E48.33485
G1 F1500 E41.83485
G0 F6000 X107.799 Y97.499
G0 X104.592 Y97.46
G0 X105.37 Y95.756
G0 X63.835 Y97.46
G0 X65.71 Y97.46
G0 X65.5 Y154
;TYPE:WALL-INNER
G1 F1500 E48.33485
G1 F1200 X65.5 Y66 E51.26175
G1 X154.5 Y66 E54.2219
G1 X154.5 Y154 E57.14879
G1 X65.5 Y154 E60.10894
G0 F6000 X65.1 Y154.4
G1 F1200 X65.1 Y65.6 E63.06244
G1 X154.9 Y65.6 E66.0492
G1 X154.9 Y154.4 E69.0027
G1 X65.1 Y154.4 E71.98946
G0 F6000 X64.7 Y154.8
;TYPE:WALL-OUTER
G1 F1200 X64.7 Y65.2 E74.96957
G1 X155.3 Y65.2 E77.98294
G1 X155.3 Y154.8 E80.96305
G1 X64.7 Y154.8 E83.97641
G0 F6000 X64.97 Y154.53
G0 X65.61 Y153.61
G0 X65.89 Y153.61
;TYPE:SKIN
G1 F1200 X65.89 Y66.39 E86.87736
G1 X154.11 Y66.39 E89.81157
G1 X154.11 Y153.61 E92.71252
G1 X65.89 Y153.61 E95.64673
G1 F1500 E89.14673
G0 F6000 X65.61 Y153.61
G0 X65.71 Y96.128
G0 X63.835 Y96.128
G0 X102.67 Y93.411
G0 X101.092 Y94.422
G0 X102.672 Y96.128
G0 X102.486 Y96.342
G1 F1500 E95.64673
G1 F1200 X104.508 Y97.644 E95.72672
G1 X106.61 Y98.262 E95.79959
G1 X106.61 Y98.389 E95.80381
G1 X113.39 Y98.39 E96.02932
G1 X113.39 Y98.262 E96.03358
G1 X115.492 Y97.646 E96.10643
G1 X117.504 Y96.351 E96.18601
G1 X119.062 Y94.553 E96.26514
G1 X120.058 Y92.379 E96.34468
G1 X120.401 Y90.014 E96.42416
G1 X120.067 Y87.647 E96.50367
G1 X119.077 Y85.47 E96.58321
G1 X117.514 Y83.658 E96.6628
G1 X115.492 Y82.356 E96.74279
G1 X113.39 Y81.738 E96.81566
G1 X113.39 Y81.611 E96.81988
G1 X106.61 Y81.61 E97.04539
G1 X106.61 Y81.738 E97.04964
G1 X104.508 Y82.354 E97.1225
G1 X102.496 Y83.649 E97.20208
G1 X100.938 Y85.447 E97.28121
G1 X99.942 Y87.621 E97.36074
G1 X99.599 Y89.986 E97.44023
G1 X99.933 Y92.353 E97.51973
G1 X100.923 Y94.53 E97.59928
G1 X102.486 Y96.342 E97.67887
G1 F1500 E91.17887
G0 F6000 X102.672 Y96.128
G0 X106.941 Y97.368
G0 X107.572 Y97.427
G0 X112.428 Y97.428
G0 X113.059 Y97.368
G0 X115.092 Y96.771
G0 X116.874 Y95.626
G0 X118.254 Y94.032
G0 X119.136 Y92.108
G0 X119.441 Y90.012
G0 X118.908 Y85.578
G0 X117.33 Y86.589
G0 X156.165 Y85.578
G0 X154.29 Y85.578
G0 X154.39 Y66.834
G0 X153.949 Y66.834
G1 F1500 E97.67887
G1 F1200 X153.665 Y66.55 E97.69223
G0 F6000 X153.099 Y66.55
G1 F1200 X153.949 Y67.4 E97.73221
G0 F6000 X153.949 Y67.965
G1 F1200 X152.534 Y66.55 E97.79876
G0 F6000 X151.968 Y66.55
G1 F1200 X153.949 Y68.531 E97.89194
G0 F6000 X153.949 Y69.097
G1 F1200 X151.402 Y66.55 E98.01175
G0 F6000 X150.837 Y66.55
G1 F1200 X153.949 Y69.662 E98.15813
G0 F6000 X153.949 Y70.228
G1 F1200 X150.271 Y66.55 E98.33113
G0 F6000 X149.705 Y66.55
G1 F1200 X153.949 Y70.794 E98.53075
G0 F6000 X153.949 Y71.359
G1 F1200 X149.14 Y66.55 E98.75695
G0 F6000 X148.574 Y66.55
G1 F1200 X153.949 Y71.925 E99.00978
G0 F6000 X153.949 Y72.491
G1 F1200 X148.008 Y66.55 E99.28922
G0 F6000 X147.443 Y66.55
G1 F1200 X153.949 Y73.056 E99.59525
G0 F6000 X153.949 Y73.622
G1 F1200 X146.877 Y66.55 E99.92789
G0 F6000 X146.311 Y66.55
G1 F1200 X153.949 Y74.188 E100.28716
G0 F6000 X153.949 Y74.753
G1 F1200 X145.746 Y66.55 E100.673
G0 F6000 X145.18 Y66.55
G1 F1200 X153.949 Y75.319 E101.08547
G0 F6000 X153.949 Y75.885
G1 F1200 X144.614 Y66.55 E101.52456
G0 F6000 X144.048 Y66.55
G1 F1200 X153.949 Y76.45 E101.99025
G0 F6000 X153.949 Y77.016
G1 F1200 X143.483 Y66.55 E102.48254
G0 F6000 X142.917 Y66.55
G1 F1200 X153.949 Y77.582 E103.00145
G0 F6000 X153.949 Y78.148
G1 F1200 X142.351 Y66.55 E103.54698
G0 F6000 X141.786 Y66.55
G1 F1200 X153.949 Y78.713 E104.11909
G0 F6000 X153.949 Y79.279
G1 F1200 X141.22 Y66.55 E104.71783
G0 F6000 X140.654 Y66.55
G1 F1200 X153.949 Y79.845 E105.34318
G0 F6000 X153.949 Y80.41
G1 F1200 X140.089 Y66.55 E105.99511
G0 F6000 X139.523 Y66.55
G1 F1200 X153.949 Y80.976 E106.67367
G0 F6000 X153.949 Y81.542
G1 F1200 X138.957 Y66.55 E107.37885
G0 F6000 X138.392 Y66.55
G1 F1200 X153.949 Y82.107 E108.1106
G0 F6000 X153.949 Y82.673
G1 F1200 X137.826 Y66.55 E108.86898
G0 F6000 X137.26 Y66.55
G1 F1200 X153.949 Y83.239 E109.65398
G0 F6000 X153.949 Y83.804
G1 F1200 X136.695 Y66.55 E110.46555
G0 F6000 X136.129 Y66.55
G1 F1200 X153.949 Y84.37 E111.30375
G0 F6000 X153.949 Y84.936
G1 F1200 X135.563 Y66.55 E112.16857
G0 F6000 X134.997 Y66.55
G1 F1200 X153.949 Y85.501 E113.05999
